!!!!SEGMENT: pl-wn--mus-iii-66-382_zarebski-juliusz--allegro-molto-op-13-no-4.krn
!!!cenid: 18xx:3545
!!!COM: Zarębski, Juliusz
!!!COM-rismID: pe30020631
!!!CDT: 1854/02/28-1885/09/15
!!!CNT:
!!!OTL: Allegro molto op. 13 no. 4
!!!PDT:
!!!AGN:
!!!SMS-siglum: PL-Wn
!!!SMS-shelfmark: Mus.III.66.382
!!!SMS-shelfwork: W
!!!SMS-variant:
!!!SMS-altvar:
!!!NIFC-rismSourceID:
!!!NIFC-rismChildID:
!!!NIFC-islandoraID:
!!!URL-pdf-islandora:
!!!URL-scan: https://polona.pl/item/allegro-molto-op-13-no-4,Njk4OTY3ODk/0 @EN{Scan on Polona} @PL{Skany w portalu Polona}
!!!ONB-nifc:
!!!AIN: 1 piano
!!!key:
**kern	**fing	**dynam	**kern	**fing	**dynam
*part1	*part1	*part1	*part1	*part1	*part1
*staff2	*	*	*staff1	*	*
*Ipiano	*	*	*Iempty	*	*
*I"Piano	*	*	*	*	*
*I'P-no	*	*	*	*	*
*ICklav	*	*	*	*	*
*clefG2	*	*	*clefG2	*	*
*k[b-e-a-d-]	*	*	*k[b-e-a-d-]	*	*
*A-:	*	*	*A-:	*	*
*M6/8	*	*	*M6/8	*	*
*k[fncngnb-e-a-d-]	*	*	*k[fncngnb-e-a-d-]	*	*
=1	=1	=1	=1	=1	=1
*	*	*	*^	*	*
!	!	!	!LO:TX:a:t=Allegro molto (quasi Presto.)	!	!	!
*ped	*	*	*	*	*	*
8r	.	.	4ee-/	16dd-\LL	2 3	p
!	!	!	!LO:TX:b:t=il canto ben marcato	!	!	!
.	.	.	.	16b-\JJ	.	<
*	*below	*	*	*	*	*
!LO:TX:a:t=P:problem=belka między kernami	!	!	!	!	!	!
(16g/LL	1	.	.	8r	.	.
16e-/	2	.	.	.	.	.
16d-/	3	.	8ee-/	8r	2	.
*Xped	*	*	*	*	*	*
16B-/JJ	4	.	.	.	.	.
*ped	*	*	*	*	*	*
8A-'/L)	5	.	8ff/L	16ee-\LL	2 3	.
.	.	.	.	16cc\	.	.
(16a-/L	1	.	8aa-/	16aa-\	4	.
16e-/J	2	.	.	16cc\	.	.
8c'/J)	3	.	8ccc/J	16ccc\	5	.
.	.	.	.	16cc\JJ	.	.
*Xped	*	*	*	*	*	*
=2	=2	=2	=2	=2	=2	=2
*ped	*	*	*	*	*	*
8r	.	.	4eee-/	16aa-\LL	2 5	[
.	.	.	.	16ee-\JJ	.	.
!LO:TX:a:t=P:problem=belka między kernami	!	!	!	!	!	!
(16bn/LL	1	.	.	8ryy	.	.
16f/J	2	.	.	.	.	.
8dn/J)	3	.	8dddn/	16dddn\LL	5	.
*Xped	*	*	*	*	*	*
.	.	.	.	16ddn\JJ	.	.
*ped	*	*	*	*	*	*
8A-'/L	.	.	8aa-/L	16aa-\LL	2	.
.	.	.	.	16dd\	.	.
(16bn/L	1	.	8bb-X/	16bb-X\	3	.
16f/J	.	.	.	16dd\	.	.
8d/J)	.	.	8bbn/J	16bbn\	4	.
.	.	.	.	16dd\JJ	.	.
*Xped	*	*	*	*	*	*
=3	=3	=3	=3	=3	=3	=3
*ped	*	*	*	*	*	*
8r	.	.	4ccc/	16gg\LL	5 2	.
.	.	.	.	16cc\JJ	.	.
!LO:TX:a:t=P:problem=belka między kernami	!	!	!	!	!	!
(16g/LL	1	.	.	8ryy	.	.
16en/J	2	.	.	.	.	.
8c/J)	4	.	8bb-X/	16bb-X\LL	4	.
*Xped	*	*	*	*	*	*
.	.	.	.	16cc\JJ	.	.
*ped	*	*	*	*	*	*
8A-'/L	.	.	8aa-/L	16ff\LL	4	.
.	.	.	.	16cc\	.	.
(16a-/L	1	.	8gg/	16gg\	3	.
16f/J	2	.	.	16cc\	.	.
8c/J)	4	.	8ff/J	16ff\	2	.
.	.	.	.	16cc\JJ	.	.
*Xped	*	*	*	*	*	*
=4	=4	=4	=4	=4	=4	=4
*ped	*	*	*	*	*	*
!	!	!	!	!	!	!LO:HP:a
8r	.	.	4een^/	N(>16cc\LL	2 4	<
.	.	.	.	16a-\JJ	.	.
!LO:TX:a:t=P:problem=belka między kernami	!	!	!	!	!	!
16g/LL	1	.	.	8ryy	.	.
16en/	2	.	.	.	.	.
16c/	3	.	8r	8ryy	.	.
16A-/JJN)	5	.	.	.	.	.
8r	.	.	8eeen^/	N(>16ccc\LL	.	[
.	.	.	.	16aa-\JJ	.	.
!LO:TX:a:t=P:problem=belka między kernami	!	!	!	!	!	!
16gg/LL	.	.	4ryy	4ryy	.	.
16een/	.	.	.	.	.	.
16cc/	.	.	.	.	.	.
*Xped	*	*	*	*	*	*
16a-/JJN)	.	.	.	.	.	.
!!LO:LB:g=original
=5	=5	=5	=5	=5	=5	=5
*ped	*	*	*	*	*	*
!LO:TX:a:t=P:problem=belka między kernami	!	!	!	!	!	!LO:HP:a
8r	.	.	4ee-X/	16dd-\LL	3	<
.	.	.	.	16b-\JJ	.	.
(16g/LL	1	.	.	8ryy	.	.
16e-/	.	.	.	.	.	.
16d-/	.	.	8ee-/	8ryy	2	.
*Xped	*	*	*	*	*	*
16B-/JJ	.	.	.	.	.	.
*ped	*	*	*	*	*	*
8A-'/L)	5	.	8ff/L	16ee-\LL	3	.
.	.	.	.	16cc\	.	.
(16a-/L	.	.	8aa-/	16aa-\	4	.
16e-/J	.	.	.	16cc\	.	.
8c'/J)	3	.	8ccc/J	16ccc\	5	.
.	.	.	.	16cc\JJ	.	.
*Xped	*	*	*	*	*	*
=6	=6	=6	=6	=6	=6	=6
*ped	*	*	*	*	*	*
8r	.	.	4eee-/	16aa-\LL	.	[
.	.	.	.	16ee-\	.	.
!LO:TX:a:t=P:problem=belka między kernami	!	!	!	!	!	!
16bn\LL	.	.	.	16bn</	.	.
16f\J	.	.	.	16f</	.	.
8dn\J	3	.	8ccc#X/	16ccc#X\	4	<
.	.	.	.	16cc#X\JJ	.	.
8A-'/	.	.	8dddn/L	16aa-\LL	2 5	.
.	.	.	.	16ddn\	.	.
16b/LL	.	.	8eee-/	16eee-\	5	.
16f/J	.	.	.	16ee-\	.	.
8d/J	.	.	8fff/J	16fff\	5	.
.	.	.	.	16ff\JJ	.	.
*Xped	*	*	*	*	*	*
=7	=7	=7	=7	=7	=7	=7
*ped	*	*	*	*	*	*
8G/	.	.	8ggg^/	N(>16eee-\LL	2 4	[ f
.	.	.	.	16ccc\JJ	.	.
!LO:TX:a:t=P:problem=belka między kernami	!	!	!	!	!	!
16aa-/LL	1	.	8ryy	8ryy	.	.
16gg/	2	.	.	.	.	.
16ee-/	4	.	8ryy	8ryy	.	.
*Xped	*	*	*	*	*	*
16cc/JJN)	5	.	.	.	.	.
8ryy	.	.	8gg^/	N(>16ff\LL	3 4	.
*ped	*	*	*	*	*	*
.	.	.	.	16ddn\JJ	1	.
!LO:TX:a:t=P:problem=belka między kernami	!	!	!	!	!	!
16a-/LL	1	.	8ryy	8ryy	.	.
16g/	2	.	.	.	.	.
16f/	3	.	8ryy	8ryy	.	.
16dn/JJN)	.	.	.	.	.	.
*Xped	*	*	*	*	*	*
=8	=8	=8	=8	=8	=8	=8
*ped	*	*	*	*	*	*
8ryy	.	.	8g^/	N(>16e-\LL	2 4	.
.	.	.	.	16c\JJ	1	.
*clefF4	*	*	*	*	*	*
!LO:TX:a:t=P:problem=belka między kernami	!	!	!	!	!	!
16A-/LL	1	.	8ryy	8ryy	.	.
16G/	.	.	.	.	.	.
16E-/	.	.	8ryy	8ryy	.	.
*Xped	*	*	*	*	*	*
16C/JJN)	.	.	.	.	.	.
*	*	*	*clefF4	*	*	*
8ryy	.	.	8G^/	N(16F\LL	3 4	.
*ped	*	*	*	*	*	*
.	.	.	.	16Dn\JJ	1	.
!LO:TX:a:t=P:problem=belka między kernami	!	!	!	!	!	!
16AA-/LL	1	.	8ryy	8ryy	.	.
16GG/	.	.	.	.	.	.
16FF/	.	.	8ryy	8ryy	.	.
16DDn/N)JJ	.	.	.	.	.	.
*Xped	*	*	*	*	*	*
*	*	*	*v	*v	*	*
!!LO:LB:g=original
=9	=9	=9	=9	=9	=9
*ped	*	*	*	*	*
N(>8CC^/L	.	.	8ryy	.	.
16AA-X/L	2	.	8ryy	.	.
16FF#X/JJ	3	.	.	.	.
!	!	!	!LO:TX:a:t=P:problem=belka między kernami	!	!LO:HP:a
8ryy	.	.	16E-\LL	4	<
.	.	.	16C\JJ	2	.
16An/LL	2	.	8ryy	.	.
16F#X/JJ	3	.	.	.	.
*	*	*	*clefG2	*	*
8ryy	.	.	16e-\LL	4	.
.	.	.	16c\JJ	2	.
*clefG2	*	*	*	*	*
16a-/LL	2	.	8ryy	.	.
16f#X/JJ	3	.	.	.	.
=10	=10	=10	=10	=10	=10
8ryy	.	.	16ee-\LL	.	.
.	.	.	16cc\JJ	.	.
!LO:TX:a:t=P:problem=belka między kernami	!	!	!	!	!
16aa-/LL	.	.	8ryy	.	.
16ff#X/JJ	.	.	.	.	.
!	!	!	!LO:TX:a:t=P:problem=belka między kernami	!	!
8ryy	.	.	16eee-\LL	4	[
.	.	.	16ccc\JJ	2	.
*Xped	*	*	*	*	*
4r	.	.	16bbn\LL	1	>
.	.	.	16ccc\	2	.
.	.	.	16eee-\	4	.
.	.	.	16ccc\	2	.
8r	.	.	16bb\	1	.
.	.	.	16ccc\JJN)	.	]]
=11	=11	=11	=11	=11	=11
*	*	*	*^	*	*
*ped	*	*	*	*	*	*
8B-/	.	.	4.aaa-/	N(>16ddd-\LL	2 5	p
.	.	.	.	16aa-\JJ	.	.
!LO:TX:a:t=P:problem=belka między kernami	!	!	!	!	!	!
16ff/LL	1	.	.	8ryy	.	.
16dd-/	2	.	.	.	.	.
16b-/	3	.	.	8ryy	.	.
16a-/JJN)	4	.	.	.	.	.
!	!	!	!	!	!	!LO:HP:a
8r	.	.	4ggg/	N(>16ddd-\LL	2 5	>
.	.	.	.	16aa-\JJ	.	.
!LO:TX:a:t=P:problem=belka między kernami	!	!	!	!	!	!
16ff/LL	.	.	.	8ryy	.	.
16dd-/	.	.	.	.	.	.
16b-/	.	.	8fff/	8ryy	4	.
16a-/JJN)	.	.	.	.	.	.
=12	=12	=12	=12	=12	=12	=12
8B-/	.	.	4eee-/	N(>16aa-\LL	2 5	.
.	.	.	.	16ff\JJ	.	.
!LO:TX:a:t=P:problem=belka między kernami	!	!	!	!	!	!
16dd-/LL	1	.	.	8ryy	.	.
16b-/	2	.	.	.	.	.
16a-/	3	.	8ddd-/	8ryy	2	.
16f/JJN)	5	.	.	.	.	.
8r	.	.	4ccc/	N(>16aa-\LL	2 3	.
.	.	.	.	16ff\JJ	.	.
!LO:TX:a:t=P:problem=belka między kernami	!	!	!	!	!	!
16dd-/LL	.	.	.	8ryy	.	.
16b-/	.	.	.	.	.	.
16a-/	.	.	8ddd-/	8ryy	4	.
16f/JJN)	.	.	.	.	.	.
*	*	*	*v	*v	*	*
!!LO:LB:g=original
=13	=13	=13	=13	=13	=13
!	!	!	!LO:TX:b:i:t=grazioso.	!	!
(<16B-/LL	3	.	[4.fff\ [4.ddd-\ [4.ff\	3 5	]
16d-/	2	.	.	.	.
16f/	1	.	.	.	.
16a-/	4	.	.	.	.
16b-/	3	.	.	.	.
16dd-/JJ	2	.	.	.	.
8ff'\)	.	.	8fff\]L 8ddd-\] 8ff\]	.	.
8r	.	.	(16aan\L	1	.
.	.	.	16bb-\	2	.
8r	.	.	16ccc\	3	.
.	.	.	16bb-\JJ)	2	.
=14	=14	=14	=14	=14	=14
(<16B-/LL	.	.	[4.fff\ [4.ddd-\ [4.ff\	.	.
16d-/	.	.	.	.	.
16f/	.	.	.	.	.
16a-/	.	.	.	.	.
16b-/	.	.	.	.	.
16dd-/JJ	.	.	.	.	.
8ff'\)	.	.	8fff\]L 8ddd-\] 8ff\]	.	.
8r	.	.	(16aan\L	.	.
.	.	.	16bb-\	.	.
8r	.	.	16ccc\	.	.
*Xped	*	*	*	*	*
.	.	.	16bb-\JJ)	.	.
=15	=15	=15	=15	=15	=15
*	*	*	*^	*	*
*ped	*	*	*	*	*	*
8B-/	.	.	4.aaa-/	N(>16ddd-\LL	2 5	.
.	.	.	.	16aa-\JJ	.	.
!LO:TX:a:t=P:problem=belka między kernami	!	!	!	!	!	!
16ff-X/LL	1	.	.	8ryy	.	.
16dd-/	2	.	.	.	.	.
16b-/	3	.	.	8ryy	.	.
16a-/JJN)	4	.	.	.	.	.
8r	.	.	4ggg-X/	N(>16ddd-\LL	5	.
.	.	.	.	16aa-\JJ	.	.
!LO:TX:a:t=P:problem=belka między kernami	!	!	!	!	!	!
16ff-/LL	.	.	.	8ryy	.	.
16dd-/	.	.	.	.	.	.
16b-/	.	.	8fff-X/	8ryy	4	.
16a-/JJN)	.	.	.	.	.	.
=16	=16	=16	=16	=16	=16	=16
8B-/	.	.	4eee-/	N(>16aa-\LL	5	.
.	.	.	.	16ff-X\JJ	.	.
!LO:TX:a:t=P:problem=belka między kernami	!	!	!	!	!	!
16dd-/LL	1	.	.	8ryy	.	.
16b-/	2	.	.	.	.	.
16a-/	3	.	8ddd-/	8ryy	4	.
16f-X/JJN)	5	.	.	.	.	.
8r	.	.	4ccc/	N(>16aa-\LL	3	.
.	.	.	.	16ff-\JJ	.	.
!LO:TX:a:t=P:problem=belka między kernami	!	!	!	!	!	!
16dd-/LL	.	.	.	8ryy	.	.
16b-/	.	.	.	.	.	.
16a-/	.	.	8ddd-/	8ryy	4	.
16f-/JJN)	.	.	.	.	.	.
*	*	*	*v	*v	*	*
!!LO:PB:g=original
=17	=17	=17	=17	=17	=17
(<16B-/LL	3	.	[4.fff-X\ [4.ddd-\ [4.ff-X\	4 5	.
16d-/	2	.	.	.	.
16f-X/	1	.	.	.	.
16a-/	4	.	.	.	.
16b-/	3	.	.	.	.
16dd-/JJ	2	.	.	.	.
8ff-X'\)	.	.	8fff-\]L 8ddd-\] 8ff-\]	.	.
8r	.	.	(16aan\L	1	.
.	.	.	16bb-\	2	.
8r	.	.	16ccc\	3	.
.	.	.	16bb-\JJ)	2	.
=18	=18	=18	=18	=18	=18
(<16B-/LL	.	.	[4.fff-X\ [4.ddd-\ [4.ff-X\	.	.
16d-/	.	.	.	.	.
16f-X/	.	.	.	.	.
16a-/	.	.	.	.	.
16b-/	.	.	.	.	.
16dd-/JJ	.	.	.	.	.
8ff-X'\)	.	.	8fff-\]L 8ddd-\] 8ff-\]	.	.
8r	.	.	(16aan\L	.	.
.	.	.	16bb-\	.	.
8r	.	.	16ccc\	.	.
*Xped	*	*	*	*	*
.	.	.	16bb-\JJ)	.	.
=19	=19	=19	=19	=19	=19
*	*	*	*^	*	*
*ped	*	*	*	*	*	*
!	!	!	!	!	!	!LO:HP:a
8d-'/	.	.	4eee-/	16bb-\LL	2 4	<
.	.	.	.	16ff\JJ	.	.
!LO:TX:a:t=P:problem=belka między kernami	!	!	!	!	!	!
(16ee-/LL	1	.	.	8ryy	.	.
16b-/J	2	.	.	.	.	.
*Xped	*	*	*	*	*	*
8g/J)	3	.	8eee-/	8ryy	2	.
*ped	*	*	*	*	*	*
8c'/	.	.	8fff/L	16eee-\LL	3	.
.	.	.	.	16aa-\	.	.
(16ee-/LL	1	.	8aaa-/	16aaa-\	4	.
16a-/J	2	.	.	16ccc\	.	.
8e-/J)	4	.	8cccc/J	16cccc\	5	.
.	.	.	.	16ccc\JJ	.	[
*Xped	*	*	*	*	*	*
=20	=20	=20	=20	=20	=20	=20
*ped	*	*	*	*	*	*
8d-'/	.	.	4bbb-/	16eee-\LL	2 5	.
.	.	.	.	16bb-\JJ	.	.
!LO:TX:a:t=P:problem=belka między kernami	!	!	!	!	!	!
(16ee-/LL	.	.	.	8ryy	.	.
16b-/J	.	.	.	.	.	.
*Xped	*	*	*	*	*	*
8g/J)	.	.	8aaa-/	8ryy	4	.
*ped	*	*	*	*	*	*
8c'/	.	.	8ggg/L	16eee-\LL	2 4	.
.	.	.	.	16aa-\	.	.
(16ee-/LL	1	.	8aaa-/	16ggg\	5	.
16cc/J	2	.	.	16aa-\JJ	.	.
8a-'/J)	3	.	8fff/J	8ryy	3	.
*Xped	*	*	*	*	*	*
!!LO:LB:g=original
=21	=21	=21	=21	=21	=21	=21
*ped	*	*	*	*	*	*
!	!	!	!	!	!	!LO:HP:a
8d-'/	.	.	4eee-/	16bb-\LL	4	<
.	.	.	.	16ff\JJ	.	.
!LO:TX:a:t=P:problem=belka między kernami	!	!	!	!	!	!
(16ee-/LL	.	.	.	8ryy	.	.
16b-/J	.	.	.	.	.	.
*Xped	*	*	*	*	*	*
8g'/J)	.	.	8eee-/	8ryy	2	.
*ped	*	*	*	*	*	*
8c'/	.	.	8fff/L	16eee-\LL	3	.
.	.	.	.	16aa-\	.	.
(16ee-/LL	.	.	8aaa-/	16aaa-\	4	.
16a-/J	.	.	.	16ccc\	.	.
8e-'/J)	.	.	8cccc/J	16cccc\	5	.
.	.	.	.	16ccc\JJ	.	.
*Xped	*	*	*	*	*	*
=22	=22	=22	=22	=22	=22	=22
!	!	!	!	!	!	!LO:HP:a
*ped	*	*	*	*	*	*
8d-/	.	.	4bbb-/	16eee-\LL	5	[ <
.	.	.	.	16bb-\JJ	.	.
!LO:TX:a:t=P:problem=belka między kernami	!	!	!	!	!	!
(16ee-/LL	.	.	.	8ryy	.	.
16b-/J	.	.	.	.	.	.
*Xped	*	*	*	*	*	*
8g'/J)	.	.	8aaa-/	8ryy	4	.
*ped	*	*	*	*	*	*
8c-X/	.	.	8ggg/L	16eee-\LL	4	.
.	.	.	.	16aa-\	.	.
(16ee-/LL	.	.	8aaa-/	16aaa-\	5	.
16cc-X/J	.	.	.	16aa-\	.	.
8a-'/J)	.	.	8fff/J	16fff\	5	.
*Xped	*	*	*	*	*	*
.	.	.	.	16ff\JJ	.	.
=23	=23	=23	=23	=23	=23	=23
*ped	*	*	*	*	*	*
8B-/	.	.	4bbb-/	N(>16eee-\LL	2 5	[ f <
.	.	.	.	16bb-\JJ	.	.
!LO:TX:a:t=P:problem=belka między kernami	!	!	!	!	!	!
16gg/LL	1	.	.	8ryy	.	.
16ee-/	2	.	.	.	.	.
16b-/	4	.	8ryy	8ryy	.	.
16g/JJN)	5	.	.	.	.	.
8r	.	.	4bbbn/	16eee-\LL	2 5	.
.	.	.	.	16bbn\JJ	.	.
16gg/LL	.	.	.	8ryy	.	.
16ee-/	.	.	.	.	.	.
16b-/	.	.	8ryy	8ryy	.	.
16g/JJ	.	.	.	.	.	.
*Xped	*	*	*	*	*	*
=24	=24	=24	=24	=24	=24	=24
*	*^	*	*	*	*	*
*Xtuplet	*	*	*	*	*	*	*
*ped	*	*	*	*	*	*	*
(<24B-X/LL	3	5	<	4r	4ryy	.	.
24dn/	2	.	.	.	.	.	.
24f/	1	2	.	.	.	.	.
24a-/	4	1	.	.	.	.	.
24b-X/	3	5	.	.	.	.	.
24ddn/	2	3	.	.	.	.	.
!LO:N:vis=16	!	!	!	!	!	!	!
8ff/JJ	1	2	.	8cccc\ 8aaa-\ 8ccc\	2ryy	.	[
8aa-'\)	2	1	.	(8dddn\L	.	1	.
8r	.	.	[	8eee-\	.	.	.
8r	.	.	.	8fff\J)	.	.	.
*Xped	*	*	*	*	*	*	*
*	*v	*v	*	*	*	*	*
*	*	*	*v	*v	*	*
!!LO:LB:g=original
=25	=25	=25	=25	=25	=25
8ggn\: 8ee-\: 8b-\: 8e-':\	.	sf	16fff-X^>/LL	3	.
.	.	.	16eee-X/	2	.
8r	.	.	16fffn/	4	.
.	.	.	16eee-/	2	.
8r	.	.	16fff/	.	.
.	.	.	16eee-/JJ	.	.
16ccc->X^>\LL	2	.	8rccc	.	.
16bb-X>\JJ	3	.	.	.	.
8ryy	.	.	16cccn/LL	3	.
.	.	.	16bb-/	2	.
8ryy	.	.	16ccc/	.	.
.	.	.	16bb-/JJ	.	.
=26	=26	=26	=26	=26	=26
16ff-X>^>\LL	2	.	8r	.	.
16ee-X>\JJ	3	.	.	.	.
8ryy	.	.	16ffn/LL	3	.
.	.	.	16ee-/	2	.
8ryy	.	.	16ff/	.	.
.	.	.	16ee-/JJ	.	.
16cc->X^>\LL	2	.	8r	.	.
16b-X>\JJ	3	.	.	.	.
8ryy	.	.	16ccn/LL	.	.
.	.	.	16b-/	.	.
8ryy	.	.	16cc/	.	.
.	.	.	16b-/JJ	.	.
=27	=27	=27	=27	=27	=27
16f-X>^>\LL	2	.	8r	.	.
16e-X>\JJ	3	.	.	.	.
4r	.	.	16fn/LL	3	.
.	.	.	16e-/	2	.
.	.	.	16f/	.	.
.	.	.	16e-/JJ	.	.
4r	.	.	16f/LL	.	.
.	.	.	16e-/	.	.
.	.	.	16f/	.	.
.	.	.	16e-/	.	.
8r	.	.	16f/	.	.
.	.	.	16e-/JJ	.	.
=28	=28	=28	=28	=28	=28
16f>^>\LL	.	.	8rcc	.	.
16e->\JJ	.	.	.	.	.
4r	.	.	16f/LL	.	>
.	.	.	16e-/	.	.
.	.	.	16f/	.	.
.	.	.	16e-/JJ	.	.
4r	.	.	16f/LL	.	.
.	.	.	16e-/	.	.
.	.	.	16f/	.	.
.	.	.	16e-/	.	.
8r	.	.	16f/	.	.
.	.	.	16e-/JJ	.	]]
!!LO:LB:g=original
=29	=29	=29	=29	=29	=29
(16f/LL	1	.	4r	.	p
16e-/	3	.	.	.	.
16f/	.	.	.	.	.
16e-/	.	.	.	.	.
16f/	.	.	8bb-\ 8dd-'\	2 5	.
16e-/JJ)	.	.	.	.	.
(16e-/LL	1	.	4.ff\ 4.a-^\	3	.
16d-/	2	.	.	.	.
16e-/	.	.	.	.	.
16d-/	.	.	.	.	.
16e-/	.	.	.	.	.
16d-/JJ	.	.	.	.	.
=30	=30	=30	=30	=30	=30
*	*	*	*	*^	*
*ped	*	*	*	*	*	*
8E-'/)	.	.	(16an\LL	1	1	.
.	.	.	16b-\	2	3	.
8r	.	.	16cc\	3	4	.
.	.	.	16b-\	2	3	.
*Xped	*	*	*	*	*	*
(8e-/ 8d-/	2 3	.	16a\	1	2	.
.	.	.	16b-\JJ)	.	3	.
*ped	*	*	*	*	*	*
8a-/ 8c/)	1 4	.	(16ddn\LL	1	1	.
.	.	.	16ee-\	2	3	.
8r	.	.	16ff\	3	4	.
.	.	.	16ee-\	2	3	.
(8a-/ 8c/	1 4	.	16dd\	1	2	.
.	.	.	16ee-\JJ)	2	3	.
*Xped	*	*	*	*	*	*
*	*	*	*	*v	*v	*
=31	=31	=31	=31	=31	=31
*ped	*	*	*	*	*
4g/ 4B-/)	2 5	.	(16aan\LL	.	<
.	.	.	16bb-\	.	.
.	.	.	16ccc\	.	.
.	.	.	16bb-\	.	.
*Xped	*	*	*	*	*
8cc\	1	.	16aa\	.	.
.	.	.	16bb-\JJ)	.	.
*ped	*	*	*	*	*
8cc-X/:L 8f/: 8dn/: 8A-':/	.	.	(16dddn\LL	.	.
.	.	.	16eee-\	.	.
8r	.	.	16fff\	.	.
.	.	.	16eee-\	.	.
8cc-/J	.	.	16ddd\	.	.
*Xped	*	*	*	*	*
.	.	.	16eee-\JJ)	.	[[
=32	=32	=32	=32	=32	=32
*ped	*	*	*8va	*	*
8b-/: 8e-/: 8G':/	.	.	(16bbb-/LL	5	>
.	.	.	16eee-/	3	.
8r	.	.	16ccc/	2	.
*Xped	*	*	*	*	*
.	.	.	16bb-/JJ)	1	.
16a->\LL	2	.	8ryy	.	.
16g>\JJ	1	.	.	.	.
*	*	*	*X8va	*	*
4ryy	.	.	(16bb-/LL	.	.
.	.	.	16ee-/	.	.
.	.	.	16cc/	.	.
.	.	.	16b-/JJ)	.	.
16a->\LL	2	.	8r	.	]]
16g>\JJ	1	.	.	.	.
!!LO:PB:g=original
=33||	=33||	=33||	=33||	=33||	=33||
*k[bnenandnf#c#g#]	*	*	*k[bnenandnf#c#g#]	*	*
*	*^	*	*	*	*
(16f#/LL	2	1	.	4r	.	.
16e/	3	2	.	.	.	.
16f#/	.	.	.	.	.	.
16e/	.	.	.	.	.	.
16f#/	.	.	.	8bb\ 8dd'\	2 5	.
16e/JJ)	.	.	.	.	.	.
(16e/LL	2	1	.	4ff#\ 4a^\	1 3	.
16d/	3	2	.	.	.	.
*	*v	*v	*	*	*	*
16e/	.	.	.	.	.
16d/	.	.	.	.	.
16e/	.	.	8r	.	.
16d/JJ)	.	.	.	.	.
=34	=34	=34	=34	=34	=34
*ped	*	*	*	*	*
8E'/	.	.	(16a#X\LL	2	.
.	.	.	16b\	3	.
8r	.	.	16cc#\	4	.
.	.	.	16b\	3	.
*Xped	*	*	*	*	*
(8e/ 8d/	2 3	.	16a#\	2	.
.	.	.	16b\JJ)	1	.
*ped	*	*	*	*	*
8a/ 8c#/)	1 4	.	(16dd#X\LL	2	.
.	.	.	16ee\	3	.
8r	.	.	16ff#\	4	.
.	.	.	16ee\	3	.
(8a/ 8c#/	1 4	.	16dd#\	2	.
*Xped	*	*	*	*	*
.	.	.	16ee\JJ)	1	.
=35	=35	=35	=35	=35	=35
*ped	*	*	*	*	*
4g#/ 4B/)	2 5	.	(16aa#X\LL	.	.
.	.	.	16bb\	.	.
.	.	.	16ccc#\	.	.
.	.	.	16bb\	.	.
*Xped	*	*	*	*	*
8cc#\	1	.	16aa#\	.	.
.	.	.	16bb\JJ)	.	.
*ped	*	*	*	*	*
8ccn/:L 8f#/: 8d#X/: 8A:/	.	.	(16ddd#X\LL	.	.
.	.	.	16eee\	.	.
8r	.	.	16fff#\	.	.
.	.	.	16eee\	.	.
8cc/J	.	.	16ddd#\	.	.
*Xped	*	*	*	*	*
.	.	.	16eee\JJ)	.	.
=36	=36	=36	=36	=36	=36
*ped	*	*	*8va	*	*
8b/: 8e/: 8G#:/	.	.	(16bbb/LL	5	.
.	.	.	16eee/	3	.
8ryy	.	.	16ccc#/	2	.
*Xped	*	*	*	*	*
.	.	.	16aa/JJ)	1	.
16a>\LL	2	.	8ryy	.	.
16g#>\JJ	3	.	.	.	.
*	*	*	*X8va	*	*
4ryy	.	.	(16bb/LL	.	.
.	.	.	16ee/	.	.
.	.	.	16cc#/	.	.
.	.	.	16b/JJ)	.	.
16a>\LL	2	.	8ryy	.	.
16g#>\JJ	3	.	.	.	.
!!LO:LB:g=original
=37	=37	=37	=37	=37	=37
*^	*	*	*	*	*
*	*	*above	*	*	*	*
16f#/LL	4.ryy	2	.	4r	.	p
16e/	.	1	.	.	.	.
16f#/	.	2	.	.	.	.
16e/	.	1	.	.	.	.
16f#/	.	.	.	(8ddd\ 8ff#\	2 5	mf
16e/JJ	.	.	.	.	.	.
*ped	*	*	*	*	*	*
16d#X/LL	16d#\	3	.	4ccc#\ 4ee\	1 4	.
16e/	16ryy	1	.	.	.	.
16f#/	4ryy	2	.	.	.	.
16e/	.	.	.	.	.	.
16f#/	.	.	.	8bb\ 8dd\)	1 3	.
16e/JJ	.	.	.	.	.	.
=38	=38	=38	=38	=38	=38	=38
*ped	*	*	*	*	*	*
16c#/LL	16c#\	4	.	(4bb\: 4ee\: 4a:\	.	.
16e/	16ryy	1	.	.	.	.
16f#/	4ryy	2	.	.	.	.
16e/	.	.	.	.	.	.
!	!	!	!	!LO:TX:a:t=P:problem=łuk cyfrowania	!	!
16f#/	.	.	.	8aa\	4	.
16e/JJ	.	.	.	.	5	.
*ped	*	*	*	*	*	*
16cn/LL	16cn\	4	.	4gg#\ 4dd#X\ 4a\	4	.
16e/	16ryy	1	.	.	.	.
16f#/	4ryy	2	.	.	.	.
16e/	.	.	.	.	.	.
16f#/	.	.	.	8ff#\)	3	.
16e/JJ	.	.	.	.	.	.
=39	=39	=39	=39	=39	=39	=39
*ped	*	*	*	*	*	*
16B/LL	16B\	5	.	(4ff#\: 4ddn\: 4a:\	4	.
16e/	16ryy	1	.	.	.	.
16f#/	4ryy	2	.	.	.	.
16e/	.	.	.	.	.	.
16f#/	.	.	.	8ee\)	3	.
16e/JJ	.	.	.	.	.	.
*ped	*	*	*	*	*	*
16A/LL	16A\	5	.	(4bb\ 4dd\ 4b\	.	.
16e/	16ryy	1	.	.	.	.
16f#/	4ryy	2	.	.	.	.
16e/	.	.	.	.	.	.
16f#/	.	.	.	8ff#\)	3	.
16e/JJ	.	.	.	.	.	.
=40	=40	=40	=40	=40	=40	=40
*ped	*	*	*	*	*	*
16E/LL	16E\	5	.	4bb\: 4dd\: 4g#:\	.	.
16e/	16ryy	1	.	.	.	.
16f#/	4ryy	2	.	.	.	.
16e/	.	.	.	.	.	.
16f#/	.	.	.	[8b/ [8g#/	1 2	>
16e/JJ	.	.	.	.	.	.
16f#/LL	4ryy	.	.	8b/]L 8g#/]	.	.
16e/	.	.	.	.	.	.
16f#/	.	.	.	8cc#/ 8a'/	1 3	.
16e/	.	.	.	.	.	.
16f#/	8ryy	.	.	8dd/J 8b'/	2 4	]]
16e/JJ	.	.	.	.	.	.
!!LO:LB:g=original
=41	=41	=41	=41	=41	=41	=41
16f#^/LL	4ryy	2	.	4r	.	.
16e/	.	1	.	.	.	.
16f#/	.	2	.	.	.	.
16e/	.	1	.	.	.	.
16f#/	8ryy	.	.	(8ddd\ 8ff#\	.	.
16e/JJ	.	.	.	.	.	.
*ped	*	*	*	*	*	*
16d#X/LL	16d#\	3	.	4ccc#\ 4ee\	.	.
16e/	16ryy	1	.	.	.	.
16f#/	4ryy	2	.	.	.	.
16e/	.	.	.	.	.	.
16f#/	.	.	.	8bb\ 8ddn\)	.	.
16e/JJ	.	.	.	.	.	.
=42	=42	=42	=42	=42	=42	=42
*ped	*	*	*	*	*	*
16c#/LL	16c#\	4	.	(4bb\: 4ee\: 4a:\	.	.
16e/	16ryy	1	.	.	.	.
16f#/	4ryy	2	.	.	.	.
16e/	.	.	.	.	.	.
16f#/	.	.	.	8aa\	.	.
16e/JJ	.	.	.	.	.	.
*ped	*	*	*	*	*	*
16cn/LL	16cn\	4	.	4gg#\ 4dd#X\ 4a\	.	.
16e/	16ryy	1	.	.	.	.
16f#/	4ryy	2	.	.	.	.
16e/	.	.	.	.	.	.
16f#/	.	.	.	8ff#\)	.	.
16e/JJ	.	.	.	.	.	.
=43	=43	=43	=43	=43	=43	=43
*ped	*	*	*	*	*	*
16B/LL	16B\	5	.	(4ff#\: 4dd\: 4a:\	.	.
16e/	16ryy	1	.	.	.	.
16f#/	4ryy	2	.	.	.	.
16e/	.	.	.	.	.	.
16f#/	.	.	.	8ee\)	.	.
16e/JJ	.	.	.	.	.	.
*ped	*	*	*	*	*	*
16A/LL	16A\	5	.	(4ccc#\: 4dd#X\: 4a:\	.	.
16e/	16ryy	1	.	.	.	.
16f#/	4ryy	2	.	.	.	.
16e/	.	.	.	.	.	.
16f#/	.	.	.	8bb\)	.	.
16e/JJ	.	.	.	.	.	.
=44	=44	=44	=44	=44	=44	=44
*ped	*	*	*	*	*	*
16E/LL	16E\	5	.	(4bb\: 4dd\: 4g#:\	.	.
16e/	16ryy	1	.	.	.	.
16f#/	4ryy	2	.	.	.	.
16e/	.	.	.	.	.	.
16f#/	.	.	.	[8b/ [8g#/)	.	>
16e/JJ	.	.	.	.	.	.
16f#/LL	4.ryy	.	.	8b/]L 8g#/]	.	.
16e/	.	.	.	.	.	.
16f#/	.	.	.	8cc#/ 8a'/	.	.
16e/	.	.	.	.	.	.
16f#/	.	.	.	8dd/J 8b'/	.	.
16e/JJ	.	.	.	.	.	]]
*v	*v	*	*	*	*	*
!!LO:LB:g=original
=45	=45	=45	=45	=45	=45
*	*	*	*^	*	*
*clefF4	*	*	*	*	*	*
!	!	!	!LO:TX:a:i:t=leggierissimo.	!	!	!
!	!	!	!	!	!	!LO:HP:b=2
*ped	*	*	*	*	*	*
8C#/	.	.	8ee/	N(>16cc#\LL	3 5	pp <
.	.	.	.	16a\	2	.
16ryy	.	.	8ryy	16f#\JJ	1	.
*	*below	*	*	*	*	*
!LO:TX:a:t=P:problem=belka między kernami	!	!	!	!	!	!
16e/LL	1	.	.	16ryy	.	.
16c#/	2	.	8ryy	8ryy	.	.
*Xped	*	*	*	*	*	*
16A/JJN)	3	.	.	.	.	.
*ped	*	*	*	*	*	*
8Cn/	.	.	8ffn/	N(>16ee-\LL	4 5	.
.	.	.	.	16a\	2	.
16ryy	.	.	8ryy	16fn\JJ	1	.
!LO:TX:a:t=P:problem=belka między kernami	!	!	!	!	!	!
16en/LL	1	.	.	16ryy	.	.
16e-X/	2	.	8ryy	8ryy	.	.
16A/JJN)	4	.	.	.	.	[
*Xped	*	*	*	*	*	*
=46	=46	=46	=46	=46	=46	=46
*	*	*	*	*	*	*^
*ped	*	*	*	*	*	*	*
!	!	!	!	!	!	!LO:HP:b=2	!
8BB/	.	.	8ff#X/	N(>16dd\LL	.	>	.
!	!	!	!	!	!	!	!LO:HP:a
.	.	.	.	16a\	.	.	<
16ryy	.	.	8ryy	16f#\JJ	.	.	.
!LO:TX:a:t=P:problem=belka między kernami	!	!	!	!	!	!	!
16en/LL	1	.	.	16ryy	.	.	.
16d/	2	.	8ryy	2ryy	.	.	.
16A/JJN)	4	.	.	.	.	.	[
4r	.	.	(16ccc#\LL	.	5	.	>
.	.	.	16bb\	.	4	.	.
.	.	.	16aa\	.	3	.	.
.	.	.	16ff#\	.	2	.	.
8r	.	.	16dd\	.	1	.	.
.	.	.	16b\JJ)	.	2	]	]]
*Xped	*	*	*	*	*	*	*
*	*	*	*	*	*	*v	*v
=47	=47	=47	=47	=47	=47	=47
*ped	*	*	*	*	*	*
!	!	!	!	!	!	!LO:HP:b=2
8C#/	.	.	8ee/	N(>16cc#\LL	.	<
.	.	.	.	16a\	.	.
16ryy	.	.	8ryy	16f#\JJ	.	.
!LO:TX:a:t=P:problem=belka między kernami	!	!	!	!	!	!
16e/LL	.	.	.	16ryy	.	.
16c#/	.	.	8ryy	8ryy	.	.
*ped	*	*	*	*	*	*
16A/JJN)	.	.	.	.	.	.
*ped	*	*	*	*	*	*
8Cn/	.	.	8ffn/	N(>16ee-X\LL	.	.
.	.	.	.	16a\	.	.
16ryy	.	.	8ryy	16fn\JJ	.	.
!LO:TX:a:t=P:problem=belka między kernami	!	!	!	!	!	!
16en/LL	.	.	.	16ryy	.	.
16e-X/	.	.	8ryy	8ryy	.	.
*Xped	*	*	*	*	*	*
16A/JJN)	.	.	.	.	.	[[
=48	=48	=48	=48	=48	=48	=48
!	!	!	!	!	!	!LO:HP:b=2
*ped	*	*	*	*	*	*
8BB/	.	.	8ff#X/	N(>16dd\LL	.	>
.	.	.	.	16a\	.	.
16ryy	.	.	8ryy	16f#\JJ	.	.
!LO:TX:a:t=P:problem=belka między kernami	!	!	!	!	!	!
16en/LL	.	.	.	16ryy	.	.
16d/	.	.	8ddd/	2ryy	5	.
16A/JJN)	.	.	.	.	.	.
4r	.	.	(16ccc#\LL	.	5	.
.	.	.	16bb\	.	.	.
.	.	.	16aa\	.	.	.
.	.	.	16ff#\	.	.	.
8r	.	.	16dd\	.	.	.
*Xped	*	*	*	*	*	*
.	.	.	16b\JJ)	.	2	]]
!!LO:LB:g=original
=49	=49	=49	=49	=49	=49	=49
*ped	*	*	*	*	*	*
8C#/	.	.	8ee/	N(>16cc#\LL	.	<
.	.	.	.	16a\	.	.
16ryy	.	.	8ryy	16f#\JJ	.	.
!LO:TX:a:t=P:problem=belka między kernami	!	!	!	!	!	!
16e/LL	.	.	.	16ryy	.	.
16c#/	.	.	8ryy	8ryy	.	.
*Xped	*	*	*	*	*	*
16A/JJN)	3	.	.	.	.	.
*ped	*	*	*	*	*	*
8Cn/	.	.	8ffn/	N(>16dd#X\LL	.	.
.	.	.	.	16a\	.	.
16ryy	.	.	8ryy	16fn\JJ	.	.
!LO:TX:a:t=P:problem=belka między kernami	!	!	!	!	!	!
16e/LL	.	.	.	16ryy	.	.
16d#X/	.	.	8ryy	8ryy	.	.
*Xped	*	*	*	*	*	*
16A/JJN)	4	.	.	.	.	.
=50	=50	=50	=50	=50	=50	=50
*ped	*	*	*	*	*	*
8BB/	.	.	4.ff#X/	N(>16dd#X\LL	.	.
.	.	.	.	16a\	.	.
16ryy	.	.	.	16f#\JJ	.	.
!LO:TX:a:t=P:problem=belka między kernami	!	!	!	!	!	!
16e/LL	.	.	.	16ryy	.	.
16d#X/	.	.	.	8ryy	.	.
16A/JJN)	4	.	.	.	.	.
8ryy	.	.	4gg#/	N(>16ff#\LL	.	.
.	.	.	.	16dd#\	.	.
16ryy	.	.	.	16a\JJ	.	.
!LO:TX:a:t=P:problem=belka między kernami	!	!	!	!	!	!
16g#/LL	1	.	.	16ryy	.	.
16f#/	2	.	8aa/ 8a/	8ryy	.	.
*Xped	*	*	*	*	*	*
16d#/JJN)	3	.	.	.	.	.
=51	=51	=51	=51	=51	=51	=51
*ped	*	*	*	*	*	*
8E\	.	.	4.aa#X/	N(>16een\LL	3 5	.
.	.	.	.	16ddn\	2	.
16ryy	.	.	.	16a#X\JJ	.	.
!LO:TX:a:t=P:problem=belka między kernami	!	!	!	!	!	!
16g#/LL	1	.	.	16ryy	.	.
16f#/	2	.	.	8ryy	.	.
16dn/JJN)	4	.	.	.	.	.
8ryy	.	.	4bb/	N(>16ee\LL	3 5	.
.	.	.	.	16dd\	.	.
16ryy	.	.	.	16b\JJ	.	.
!LO:TX:a:t=P:problem=belka między kernami	!	!	!	!	!	!
16an/LL	1	.	.	16ryy	.	.
16g#/	2	.	8bb#X/ 8b#X/	8ryy	.	.
*Xped	*	*	*	*	*	*
16f#/JJN)	3	.	.	.	.	.
*clefG2	*	*	*	*	*	*
=52	=52	=52	=52	=52	=52	=52
*ped	*	*	*	*	*	*
!LO:SIC:v:s:o=p zamiast ped	!	!	!	!	!	!
8e/	4	.	4.ccc#/	N(>16aa\LL	3 5	.
.	.	.	.	16ff#\	.	.
16ryy	.	.	.	16cc#\JJ	.	.
!LO:TX:a:t=P:problem=belka między kernami	!	!	!	!	!	!
16bn/LL	1	.	.	16ryy	.	.
16a/	3	.	.	8ryy	.	.
16f#/JJN)	3	.	.	.	.	.
8ryy	.	.	4ddd/	N(>16aa\LL	3 5	.
.	.	.	.	16ff#\	.	.
16ryy	.	.	.	16dd\JJ	.	.
!LO:TX:a:t=P:problem=belka między kernami	!	!	!	!	!	!
16cc#/LL	1	.	.	16ryy	.	.
16b#X/	2	.	8ddd#X/ 8dd#X/	8ryy	.	.
*Xped	*	*	*	*	*	*
16an/JJN)	3	.	.	.	.	.
!!LO:PB:g=original
=53	=53	=53	=53	=53	=53	=53
!	!	!	!	!	!	!LO:HP:a
*ped	*	*	*	*	*	*
8c#/	.	.	8eee/	N(>16ccc#\LL	.	p <
.	.	.	.	16aa\	.	.
16ryy	.	.	8ryy	16ff#\JJ	.	.
!LO:TX:a:t=P:problem=belka między kernami	!	!	!	!	!	!
16ee/LL	.	.	.	16ryy	.	.
16cc#/	.	.	8ryy	8ryy	.	.
*Xped	*	*	*	*	*	*
16a/JJN)	.	.	.	.	.	.
*ped	*	*	*	*	*	*
8cn/	.	.	8fffn/	N(>16eee-X\LL	.	.
.	.	.	.	16aa\	.	.
16ryy	.	.	8ryy	16ffn\JJ	.	.
!LO:TX:a:t=P:problem=belka między kernami	!	!	!	!	!	!
16ee/LL	.	.	.	16ryy	.	.
16ee-X/	.	.	8ryy	8ryy	.	.
16a/JJN)	.	.	.	.	.	.
*Xped	*	*	*	*	*	*
=54	=54	=54	=54	=54	=54	=54
*ped	*	*	*	*	*	*
8B/	.	.	8fff#X/	N(>16dddn\LL	.	[
.	.	.	.	16aa\	.	.
16ryy	.	.	8ryy	16ff#X\JJ	.	.
!LO:TX:a:t=P:problem=belka między kernami	!	!	!	!	!	!
16een/LL	.	.	.	16ryy	.	.
*	*	*	*8va	*	*	*
16dd/	.	.	8ryy	2ryy	.	.
16a/JJN)	.	.	.	.	.	.
4r	.	.	(16cccc#/LL	.	5	>
.	.	.	16bbb/	.	.	.
.	.	.	16aaa\	.	.	.
.	.	.	16fff#/	.	.	.
8r	.	.	16ddd/	.	1	.
.	.	.	16bb/JJ)	.	2	.
*Xped	*	*	*X8va	*	*	*
=55	=55	=55	=55	=55	=55	=55
*ped	*	*	*	*	*	*
!	!	!	!	!	!	!LO:HP:a
8c#/	.	.	8eee/	N(>16ccc#\LL	.	] <
.	.	.	.	16aa\	.	.
16ryy	.	.	8ryy	16ff#\JJ	.	.
!LO:TX:a:t=P:problem=belka między kernami	!	!	!	!	!	!
16ee/LL	.	.	.	16ryy	.	.
16cc#/	.	.	8ryy	8ryy	.	.
*Xped	*	*	*	*	*	*
16a/JJN)	.	.	.	.	.	.
*ped	*	*	*	*	*	*
8cn/	.	.	8fffn/	N(>16eee-X\LL	.	.
.	.	.	.	16aa\	.	.
16ryy	.	.	8ryy	16ffn\JJ	.	.
!LO:TX:a:t=P:problem=belka między kernami	!	!	!	!	!	!
16ee/LL	.	.	.	16ryy	.	.
16ee-X/	.	.	8ryy	8ryy	.	.
*Xped	*	*	*	*	*	*
16a/JJN)	.	.	.	.	.	.
=56	=56	=56	=56	=56	=56	=56
*ped	*	*	*	*	*	*
8B/	.	.	8fff#X/	N(>16ddd\LL	.	[
.	.	.	.	16aa\	.	.
16ryy	.	.	8ryy	16ff#\JJ	.	.
!LO:TX:a:t=P:problem=belka między kernami	!	!	!	!	!	!
16een/LL	.	.	.	16ryy	.	.
*	*	*	*8va	*	*	*
16dd/	.	.	8dddd/	2ryy	.	.
16a/JJN)	.	.	.	.	.	.
4r	.	.	(16cccc#/LL	.	5	>
.	.	.	16bbb/	.	.	.
.	.	.	16aaa/	.	.	.
.	.	.	16fff#/	.	.	.
8r	.	.	16ddd/	.	1	.
.	.	.	16bb/JJ)	.	2	]
*Xped	*	*	*X8va	*	*	*
!!LO:LB:g=original
=57	=57	=57	=57	=57	=57	=57
*ped	*	*	*	*	*	*
8c#/	.	.	4.eee/	16ccc#\LL	.	<
.	.	.	.	16aa\	.	.
16ryy	.	.	.	16ff#\JJ	.	.
!LO:TX:a:t=P:problem=belka między kernami	!	!	!	!	!	!
16ee/LL	.	.	.	16ryy	.	.
16cc#/	.	.	.	8ryy	.	.
*Xped	*	*	*	*	*	*
16a/JJ	.	.	.	.	.	.
*ped	*	*	*	*	*	*
8cn/	.	.	4.fffn/	N(>16eee-X\LL	.	.
.	.	.	.	16aa\	.	.
16ryy	.	.	.	16ffn\JJ	.	.
!LO:TX:a:t=P:problem=belka między kernami	!	!	!	!	!	!
16ee/LL	.	.	.	16ryy	.	.
16ee-X/	.	.	.	8ryy	.	.
*Xped	*	*	*	*	*	*
16a/JJN)	.	.	.	.	.	.
=58	=58	=58	=58	=58	=58	=58
*ped	*	*	*	*	*	*
8B/	.	.	4.fff#X/	N(>16ddd#X\LL	.	.
.	.	.	.	16aa\	.	.
16ryy	.	.	.	16ff#\JJ	.	.
!LO:TX:a:t=P:problem=belka między kernami	!	!	!	!	!	!
16een/LL	.	.	.	16ryy	.	.
16dd#X/	.	.	.	8ryy	.	.
16a/JJN)	.	.	.	.	.	.
*	*	*	*8va	*	*	*
8ryy	.	.	4ggg#/	N(>16fff#\LL	.	.
.	.	.	.	16ddd#X\	.	.
16ryy	.	.	.	16aa\JJ	.	.
!LO:TX:a:t=P:problem=belka między kernami	!	!	!	!	!	!
16gg#/LL	.	.	.	16ryy	.	.
16ff#/	.	.	8aaa/ 8aa/	8ryy	.	.
*Xped	*	*	*	*	*	*
16dd#/JJN)	.	.	.	.	.	.
=59	=59	=59	=59	=59	=59	=59
*ped	*	*	*	*	*	*
8e/	.	.	4.aaa#X/	N(>16eee\LL	.	.
.	.	.	.	16dddn\	.	.
16ryy	.	.	.	16aa#X\JJ	.	.
!LO:TX:a:t=P:problem=belka między kernami	!	!	!	!	!	!
16gg#/LL	.	.	.	16ryy	.	.
16ff#/	.	.	.	8ryy	.	.
16ddn/JJN)	.	.	.	.	.	.
8ryy	.	.	4bbb/	N(>16eeen\LL	.	.
.	.	.	.	16ddd\	.	.
16ryy	.	.	.	16bb\JJ	.	.
!LO:TX:a:t=P:problem=belka między kernami	!	!	!	!	!	!
16aan/LL	.	.	.	16ryy	.	.
16gg#/	.	.	8bbb#X/ 8bb#X/	8ryy	.	.
*Xped	*	*	*	*	*	*
16ff#/JJN)	.	.	.	.	.	.
=60	=60	=60	=60	=60	=60	=60
*ped	*	*	*	*	*	*
8ee'\	.	.	4cccc#/	N(>16aaa\LL	.	.
.	.	.	.	16fff#\	.	.
16ryy	.	.	.	16ccc#\JJ	.	.
!LO:TX:a:t=P:problem=belka między kernami	!	!	!	!	!	!
16bb/LL	1	.	.	16ryy	.	.
16aa/	2	.	8cccc##X/ 8ccc##X/	8ryy	.	.
16ff#/JJN)	3	.	.	.	.	.
8.ryy	.	.	4dddd/	N(>16aaa\LL	.	.
.	.	.	.	16fff#\	.	.
.	.	.	.	16ddd#X\JJ	.	.
!LO:TX:a:t=P:problem=belka między kernami	!	!	!	!	!	!
16dddn/LL	1	.	.	16ryy	.	.
16ccc#/	2	.	8eeee/ 8eee/	8ryy	.	.
*Xped	*	*	*	*	*	*
16aa/JJN)	4	.	.	.	.	.
*	*	*	*X8va	*	*	*
!!LO:LB:g=original
=61	=61	=61	=61	=61	=61	=61
*ped	*	*	*8va	*	*	*
!	!	!	!	!	!	!LO:DY:rj:b=2
8ffn\: 8ccn\: 8a\: 8e-X:\	.	.	8ffffn^/	N(>16ccccn\LL	3 5	f
.	.	.	.	16aaa\	2	.
16ryy	.	.	8ryy	16fffn\JJ	1	.
!LO:TX:a:t=P:problem=belka między kernami	!	!	!	!	!	!
16eee-X\LL	.	.	.	16ryy	.	.
*	*	*	*X8va	*	*	*
16ddd\	.	.	8ryy	8ryy	.	.
16cccn\JJN)	.	.	.	.	.	.
8.ryy	.	.	8fff^/	N(>16ccc#\LL	.	.
.	.	.	.	16aa\	.	.
.	.	.	8ryy	16ff#\JJ	.	.
!LO:TX:a:t=P:problem=belka między kernami	!	!	!	!	!	!
16ee-X/LL	.	.	.	16ryy	.	.
16dd/	.	.	8ryy	8ryy	.	.
16ccn/JJN)	.	.	.	.	.	.
=62	=62	=62	=62	=62	=62	=62
8.r	.	.	8ffn^/	N(>16ccn\LL	.	.
.	.	.	.	16a\	.	.
.	.	.	8ryy	16f#\JJ	.	.
!LO:TX:a:t=P:problem=belka między kernami	!	!	!	!	!	!
16e-X/LL	.	.	.	16ryy	.	.
16d/	.	.	8ryy	8ryy	.	.
16cn/JJN)	.	.	.	.	.	.
8.r	.	.	8fn^/	N(>16cn\LL	.	.
.	.	.	.	16A\	.	.
.	.	.	8ryy	16Fn\JJ	.	.
*clefF4	*	*	*	*	*	*
!LO:TX:a:t=P:problem=belka między kernami	!	!	!	!	!	!
16E-X/LL	.	.	.	16ryy	.	.
16D/	.	.	8ryy	8ryy	.	.
16Cn/JJN)	.	.	.	.	.	.
*Xped	*	*	*	*	*	*
*	*	*	*v	*v	*	*
=63	=63	=63	=63	=63	=63
*ped	*	*	*	*	*
4EE-X/ 4EEE-X/	.	.	4r	.	.
(8BB/	3	.	(8b/ 8B/	4	.
4Cn/	2	.	4ccn/ 4cn/	5	.
8Gn\)	1	.	8ggn\ 8gn\)	.	.
=64	=64	=64	=64	=64	=64
(4Fn/: 4Cn/: 4AA/: 4EE-X:/	.	.	(4ffn\ 4ccn\ 4a\ 4fn\	.	<
8En\	4	.	8een\ 8en\	4	.
4F\	3	.	4ff\ 4f\	5	.
8d\)	1	.	8ddd\ 8dd\)	.	.
=65	=65	=65	=65	=65	=65
(4cn\: 4B\: 4A\: 4F#\: 4E-X:\	.	.	(4cccn\ 4aa\ 4ff#\ 4ccn\	3 5	.
8B\	3	.	8bb\ 8b\	4	.
4c\	2	.	4ccc\ 4cc\	5	.
8gn\)	1	.	8gggn\ 8ggn\)	.	[[
!!LO:LB:g=original
=66	=66	=66	=66	=66	=66
(4fn\ 4cn\ 4A\ 4E-X\	.	.	(4fffn\ 4cccn\ 4aa\ 4ffn\	.	.
8en\	4	.	8eee\ 8een\	4	.
4f\	3	.	4fff#X\ 4ff\	5	.
*clefG2	*	*	*	*	*
*	*	*	*8va	*	*
8dd\)	1	.	8dddd\ 8ddd\)	.	.
*Xped	*	*	*X8va	*	*
=67||	=67||	=67||	=67||	=67||	=67||
*ped	*	*	*	*	*
8ddn/: 8a-/: 8e-:/	.	.	4r	.	ff
8r	.	.	.	.	.
!	!	!	!LO:TX:b:t=con passione.	!	!
8r	.	.	(8dddn\ 8ddn\	.	.
*clefF4	*	*	*	*	*
4.E-/ 4.EE-/	.	.	4eee-\ 4ee-\	.	.
*Xped	*	*	*	*	*
.	.	.	8eeen\ 8een\)	.	.
=68	=68	=68	=68	=68	=68
*ped	*	*	*	*	*
4f\: 4c\: 4An\: 4E-:\	.	.	(4fff\ 4ff\	.	.
8r	.	.	8ggg-X\ 8gg-X\	.	.
4.E-/ 4.EE-/	.	.	4bbn\ 4bn\	.	.
*Xped	*	*	*	*	*
.	.	.	8ccc\ 8cc\)	.	.
=69	=69	=69	=69	=69	=69
*ped	*	*	*	*	*
4f#X\: 4d-X\: 4An\: 4E-X:\	.	.	(4ccc\ 4cc\	.	.
8r	.	.	8ddd-X\ 8dd-X\	.	.
4.E-/ 4.EE-/	.	.	4aa-\ 4a-\	.	.
*Xped	*	*	*	*	*
.	.	.	8aan\ 8an\)	.	.
=70	=70	=70	=70	=70	=70
*ped	*	*	*	*	*
4g\: 4d-\: 4B-\: 4E-:\	.	.	(4ccc\ 4cc\	.	.
!	!	!	!LO:TX:b:t=poco rit.	!	!
8r	.	.	8bb-\ 8b-\	.	.
4.E-/ 4.EE-/	.	.	4gg\ 4g\	.	.
*Xped	*	*	*	*	*
.	.	.	8ee-/ 8e-/)	.	.
!!LO:PB:g=original
=71	=71	=71	=71	=71	=71
*	*	*	*^	*	*
*clefG2	*	*	*	*	*	*
*ped	*	*	*	*	*	*
!	!	!	!LO:TX:a:t=a tempo	!	!	!
8r	.	.	4ee-/	N(>16dd-\LL	2 3	p
!	!	!	!	!	!	!LO:HP:a
.	.	.	.	16b-\JJ	.	<
*	*below	*	*	*	*	*
16g/LL	1	.	.	8r	.	.
16e-/	.	.	.	.	.	.
16d-/	.	.	8ee-/	8r	2	.
*Xped	*	*	*	*	*	*
16B-/JJN)	.	.	.	.	.	.
*ped	*	*	*	*	*	*
8A-/	5	.	8ff/L	16ee-\LL	3	.
.	.	.	.	16cc\	.	.
(16a-/LL	.	.	8aa-/	16aa-\	4	.
16e-/J	.	.	.	16cc\	.	.
8c/J)	3	.	8ccc/J	16ccc\	5	.
.	.	.	.	16cc\JJ	.	.
*Xped	*	*	*	*	*	*
=72	=72	=72	=72	=72	=72	=72
*ped	*	*	*	*	*	*
8r	.	.	4eee-/	16aa-\LL	2 5	[
.	.	.	.	16ee-\JJ	.	.
(16bn/LL	.	.	.	8ryy	.	.
16f/J	.	.	.	.	.	.
8dn/J)	3	.	8dddn/	16dddn\LL	.	.
.	.	.	.	16ddn\JJ	.	.
!	!	!	!	!	!	!LO:HP:a
*ped	*	*	*	*	*	*
8A-/	.	.	8aa-/L	16aa-\LL	2	<
.	.	.	.	16dd\	.	.
(16bn/LL	.	.	8bb-X/	16bb-X\	3	.
16f/J	.	.	.	16dd\	.	.
8d/J)	.	.	8bbn/J	16bbn\	4	.
*Xped	*	*	*	*	*	*
.	.	.	.	16dd\JJ	.	[
=73	=73	=73	=73	=73	=73	=73
!	!	!	!	!	!	!LO:HP:a
*ped	*	*	*	*	*	*
8r	.	.	4ccc/	16een\LL	2 5	>
.	.	.	.	16cc\JJ	.	.
(16g/LL	.	.	.	8ryy	.	.
16en/J	.	.	.	.	.	.
8c/J)	3	.	8bb-X/	16bb-X\LL	4	.
.	.	.	.	16cc\JJ	.	.
*ped	*	*	*	*	*	*
8A-/	.	.	8aa-/L	16ff\LL	2 4	.
.	.	.	.	16cc\	.	.
(16a-/LL	.	.	8gg/	16gg\	3	.
16f/J	.	.	.	16cc\	.	.
8c/J)	4	.	8ff/J	16ff\	2	.
.	.	.	.	16cc\JJ	.	]
*Xped	*	*	*	*	*	*
=74	=74	=74	=74	=74	=74	=74
!	!	!	!	!	!	!LO:HP:a
*ped	*	*	*	*	*	*
8r	.	.	4een^/	N(>16cc\LL	2 4	<
.	.	.	.	16a-\JJ	.	.
!LO:TX:a:t=P:problem=belka między kernami	!	!	!	!	!	!
16g/LL	1	.	.	8ryy	.	.
16en/	2	.	.	.	.	.
16c/	4	.	8r	8ryy	.	.
16A-/JJN)	5	.	.	.	.	.
8ryy	.	.	8eeen^^/	16cccn\LL	.	[
.	.	.	.	16aa-\JJ	.	.
!LO:TX:a:t=P:problem=belka między kernami	!	!	!	!	!	!
16gg/LL	.	.	4ryy	4ryy	.	.
16een/	.	.	.	.	.	.
16cc/	.	.	.	.	.	.
*Xped	*	*	*	*	*	*
16a-/JJN)	.	.	.	.	.	.
!!LO:LB:g=original
=75	=75	=75	=75	=75	=75	=75
!	!	!	!	!	!	!LO:HP:a
*ped	*	*	*	*	*	*
8ryy	.	.	4ee-/	16ddn\LL	.	<
.	.	.	.	16b-\JJ	.	.
!LO:TX:a:t=P:problem=belka między kernami	!	!	!	!	!	!
16g/LL	.	.	.	8ryy	.	.
16e-/	.	.	.	.	.	.
16d-/	.	.	8ee-/	8ryy	.	.
16B-/JJN)	.	.	.	.	.	.
8A-/	.	.	8ff/L	16ee-\LL	.	.
.	.	.	.	16cc\	.	.
16a-/LL	.	.	8aa-/	16aa-\	.	.
16e-/J	.	.	.	16cc\	.	.
8c/J	.	.	8ccc/J	16ccc\	.	.
.	.	.	.	16cc\JJ	.	.
=76	=76	=76	=76	=76	=76	=76
*ped	*	*	*	*	*	*
8r	.	.	4eee-/	N(>16aa-\LL	.	[
.	.	.	.	16ee-\JJ	.	.
!LO:TX:a:t=P:problem=belka między kernami	!	!	!	!	!	!
16bn/LL	.	.	.	8ryy	.	.
16f/J	.	.	.	.	.	.
8dn/JN)	.	.	8ccc#X/	16ccc#X\LL	.4	<
.	.	.	.	16cc#X\JJ	.	.
8A-'/	.	.	8dddn/L	16aa-\LL	5	.
.	.	.	.	16ddn\	.	.
(16b/LL	.	.	8eee-/	16eee-\	.	.
16f/J	.	.	.	16ee-\	.	.
8d/J)	.	.	8fff/J	16fff\	.	.
*Xped	*	*	*	*	*	*
.	.	.	.	16ff\JJ	.	[
=77	=77	=77	=77	=77	=77	=77
*ped	*	*	*	*	*	*
8G/	.	.	8ggg^/	N(>16eee-\LL	2 4	f
.	.	.	.	16ccc\JJ	1	.
!LO:TX:a:t=P:problem=belka między kernami	!	!	!	!	!	!
16aa-/LL	1	.	8ryy	8ryy	.	.
16gg/	2	.	.	.	.	.
16ee-/	4	.	8ryy	8ryy	.	.
*Xped	*	*	*	*	*	*
16cc/JJN)	5	.	.	.	.	.
8ryy	.	.	8gg^/	N(>16ff\LL	3 4	.
*ped	*	*	*	*	*	*
.	.	.	.	16ddn\JJ	1	.
!LO:TX:a:t=P:problem=belka między kernami	!	!	!	!	!	!
16a-/LL	1	.	8ryy	8ryy	.	.
16g/	2	.	.	.	.	.
16f/	3	.	8ryy	8ryy	.	.
*Xped	*	*	*	*	*	*
16dn/JJN)	5	.	.	.	.	.
=78	=78	=78	=78	=78	=78	=78
*clefF4	*	*	*	*	*	*
8ryy	.	.	8g^/	16e-\LL	.	.
*ped	*	*	*	*	*	*
.	.	.	.	16c\JJ	.	.
!LO:TX:a:t=P:problem=belka między kernami	!	!	!	!	!	!
16A-/LL	.	.	8ryy	8ryy	.	.
16G/	.	.	.	.	.	.
16E-/	.	.	8ryy	8ryy	.	.
*Xped	*	*	*	*	*	*
16C/JJ	.	.	.	.	.	.
*	*	*	*clefF4	*	*	*
8ryy	.	.	8G^/	16F\LL	.	.
*ped	*	*	*	*	*	*
.	.	.	.	16Dn\JJ	.	.
!LO:TX:a:t=P:problem=belka między kernami	!	!	!	!	!	!
16AA-/LL	.	.	8ryy	8ryy	.	.
16GG/	.	.	.	.	.	.
16FF/	.	.	8ryy	8ryy	.	.
*Xped	*	*	*	*	*	*
16DDn/JJ	.	.	.	.	.	.
*	*	*	*v	*v	*	*
!!LO:LB:g=original
=79	=79	=79	=79	=79	=79
!	!	!	!	!	!LO:HP:a
*ped	*	*	*	*	*
8CC^/L	5	.	8ryy	.	<
16AA-X/L	2	.	8ryy	.	.
16FF#X/JJ	3	.	.	.	.
!	!	!	!LO:TX:a:t=P:problem=belka między kernami	!	!
8ryy	.	.	16E-\LL	4	.
.	.	.	16C\JJ	2	.
16A-X\LL	2	.	8ryy	.	.
16F#X\JJ	3	.	.	.	.
*	*	*	*clefG2	*	*
!	!	!	!LO:TX:a:t=P:problem=belka między kernami	!	!
8ryy	.	.	16e-\LL	4	.
.	.	.	16c\JJ	2	.
*clefG2	*	*	*	*	*
16a-X/LL	.	.	8ryy	.	[[
*Xped	*	*	*	*	*
16f#X/JJ	.	.	.	.	.
=80	=80	=80	=80	=80	=80
*ped	*	*	*	*	*
4ryy	.	.	N(>16ee-^>/LL	3	>
.	.	.	16dd-/	.	.
.	.	.	16cc/	.	.
.	.	.	16dd-/	.	.
8ryy	.	.	16ee-/	.	.
.	.	.	16dd-/JJ	.	.
16a->\LL	2	.	8ryy	.	.
16f>\JJ	3	.	.	.	.
8ryy	.	.	16e-/LL	3	.
.	.	.	16d-/JJ)	2	.
*clefF4	*	*	*	*	*
16A-\LL	.	.	8ryy	.	]]
*Xped	*	*	*	*	*
16F\JJN)	.	.	.	.	.
=81	=81	=81	=81	=81	=81
*ped	*	*	*	*	*
8C^/L	.	.	8ryy	.	<
16A-/L	2	.	8ryy	.	.
16F#X/JJ	3	.	.	.	.
!	!	!	!LO:TX:a:t=P:problem=belka między kernami	!	!
8ryy	.	.	16e-\LL	4	.
.	.	.	16c\JJ	2	.
*clefG2	*	*	*	*	*
16an/LL	.	.	8ryy	.	.
16f#X/JJ	.	.	.	.	.
!	!	!	!LO:TX:a:t=P:problem=belka między kernami	!	!
8ryy	.	.	16ee-\LL	.	.
.	.	.	16cc\JJ	.	.
16aa-/LL	.	.	8ryy	.	[[
*Xped	*	*	*	*	*
16ff#X/JJ	.	.	.	.	.
=82	=82	=82	=82	=82	=82
4ryy	.	.	(16eee-^\LL	3	>
*ped	*	*	*	*	*
.	.	.	16ddd-\	.	.
.	.	.	16ccc\	.	.
.	.	.	16ddd-\	.	.
8ryy	.	.	16eee-\	.	.
.	.	.	16ddd-\JJ	.	.
16aa-/LL	2	.	8ryy	.	]
16ff/JJ	3	.	.	.	.
!	!	!	!LO:TX:a:t=P:problem=belka między kernami	!	!
8ryy	.	.	16ee-\LL	3	.
.	.	.	16dd-\JJ)	2	.
16a-/LL	.	.	8ryy	.	.
*Xped	*	*	*	*	*
16f/JJ	.	.	.	.	.
!!LO:LB:g=original
=83	=83	=83	=83	=83	=83
*^	*	*	*	*	*
*ped	*	*	*	*	*	*
!	!	!	!	!LO:TX:b:t=sempre	!	!
8ryy	8c-X\L	.	.	N(>16eee-^\LL	5	<
.	.	.	.	16ddd-\	4	.
8ryy	8r	.	.	16aa-\	2	.
.	.	.	.	16ff\	1	.
16ryy	16r	.	.	16ee-\JJ	2	.
!LO:TX:a:t=P:problem=belka między kernami	!	!	!	!	!	!
*	*	*^	*	*	*	*
16dd-/N)	16a-\Jk 16f\	1	2 3	.	16r	.	.
*	*	*v	*v	*	*	*	*
*ped	*	*	*	*	*	*
8ryy	8B-\L	.	.	N(>16eee-^\LL	5	.
.	.	.	.	16dddn\	4	.
8ryy	8r	.	.	16aa-\	2	.
.	.	.	.	16ff\	1	.
16ryy	16r	.	.	16ee-\JJ	2	.
!LO:TX:a:t=P:problem=belka między kernami	!	!	!	!	!	!
16ddn/N)	16a-\Jk 16f\	3	.	16r	.	[[
=84	=84	=84	=84	=84	=84	=84
*ped	*	*	*	*	*	*
8ryy	8d-X\L	.	.	N(>16fff^\LL	.	.
.	.	.	.	16eee-\	.	.
8ryy	8r	.	.	16bb-\	.	.
.	.	.	.	16gg\	.	.
16ryy	16r	.	.	16ff\JJ	.	.
!LO:TX:a:t=P:problem=belka między kernami	!	!	!	!	!	!
16ee-/N)	16b-\Jk 16g\	3	.	16r	.	.
*ped	*	*	*	*	*	*
8ryy	8c\L	.	.	N(>16fff^\LL	.	.
.	.	.	.	16eeen\	.	.
8ryy	8r	.	.	16bb-\	.	.
.	.	.	.	16gg\	.	.
16ryy	16r	.	.	16ff\JJ	.	.
!LO:TX:a:t=P:problem=belka między kernami	!	!	!	!	!	!
16een/N)	16b-\Jk 16g\	4	.	16r	.	.
*v	*v	*	*	*	*	*
=85	=85	=85	=85	=85	=85
*ped	*	*	*	*	*
8f\	5	.	N(>16ggg^\LL	5	.
.	.	.	16fff\	4	.
8r	.	.	16ccc\	2	.
.	.	.	16aa-\JJ	1	.
!LO:TX:a:t=P:problem=belka między kernami	!	!	!	!	!
*Xped	*	*	*	*	*
16gg/LL	1	.	8r	.	.
16ff/JJN)	2	.	.	.	.
*ped	*	*	*	*	*
8dd-^\	4	.	N(>16ggg^\LL	5	.
.	.	.	16fff\	4	.
8r	.	.	16ddd-\	2	.
.	.	.	16aa-\JJ	1	.
!LO:TX:a:t=P:problem=belka między kernami	!	!	!	!	!
16gg/LL	1	.	8r	.	.
*Xped	*	*	*	*	*
16ff/JJN)	2	.	.	.	.
=86	=86	=86	=86	=86	=86
*ped	*	*	*	*	*
8cc^\	5	.	N(>16ggg^\LL	.	.
.	.	.	16fff\	.	.
8r	.	.	16ccc\	.	.
.	.	.	16aa-\JJ	.	.
!LO:TX:a:t=P:problem=belka między kernami	!	!	!	!	!
16gg/LL	1	.	8r	.	.
*Xped	*	*	*	*	*
16ff/JJ	2	.	.	.	.
*ped	*	*	*	*	*
8cc-X^\	.	.	N(>16ggg^\LL	.	.
.	.	.	16fff\	.	.
8rN)	.	.	16ddd-\	.	.
.	.	.	16aa-\JJ	.	.
!LO:TX:a:t=P:problem=belka między kernami	!	!	!	!	!
16gg/LL	.	.	8r	.	.
*Xped	*	*	*	*	*
16ff/JJN)	.	.	.	.	.
!!LO:LB:g=original
=87	=87	=87	=87	=87	=87
*	*	*	*^	*	*
*ped	*	*	*	*	*	*
8B-/	.	.	4.aaa-/	N(>16ddd-\LL	2 5	f
.	.	.	.	16aa-\JJ	.	.
!LO:TX:a:t=P:problem=belka między kernami	!	!	!	!	!	!
16ff/LL	1	.	.	8ryy	.	.
16dd-/	2	.	.	.	.	.
16b-/	3	.	.	8ryy	.	.
16a-/JJN)	4	.	.	.	.	.
8ryy	.	.	4ggg/	N(>16ddd-\LL	2 5	.
.	.	.	.	16aa-\JJ	.	.
!LO:TX:a:t=P:problem=belka między kernami	!	!	!	!	!	!
16ff/LL	.	.	.	8ryy	.	.
16dd-/	.	.	.	.	.	.
16b-/	.	.	8fff/	8ryy	4	.
16a-/JJN)	.	.	.	.	.	.
=88	=88	=88	=88	=88	=88	=88
8B-/	.	.	4eee-/	N(>16aa-\LL	2 5	.
.	.	.	.	16ff\JJ	.	.
!LO:TX:a:t=P:problem=belka między kernami	!	!	!	!	!	!
16dd-/LL	1	.	.	8ryy	.	.
16b-/	2	.	.	.	.	.
16a-/	3	.	8ddd-/	8ryy	4	.
16f/JJN)	5	.	.	.	.	.
8ryy	.	.	4ccc/	N(>16aa-\LL	3	.
.	.	.	.	16ff\JJ	.	.
!LO:TX:a:t=P:problem=belka między kernami	!	!	!	!	!	!
16dd-/LL	.	.	.	8ryy	.	.
16b-/	.	.	.	.	.	.
16a-/	.	.	8ddd-/	8ryy	4	.
16f/JJN)	.	.	.	.	.	.
*	*	*	*v	*v	*	*
=89	=89	=89	=89	=89	=89
(<16B-/LL	3	.	[4.fff\ [4.ddd-\ [4.ff\	3 5	p
16d-/	2	.	.	.	.
16f/	1	.	.	.	.
16a-/	4	.	.	.	.
16b-/	3	.	.	.	.
16dd-/JJ	2	.	.	.	.
8ff'\)	.	.	8fff\]L 8ddd-\] 8ff\]	.	.
8r	.	.	(16aan\L	1	.
.	.	.	16bb-\	2	.
8r	.	.	16ccc\	3	.
.	.	.	16bb-\JJ)	2	.
=90	=90	=90	=90	=90	=90
(<16B-/LL	.	.	[4.fff\ [4.ddd-\ [4.ff\	.	.
16d-/	.	.	.	.	.
16f/	.	.	.	.	.
16a-/	.	.	.	.	.
16b-/	.	.	.	.	.
16dd-/JJ	.	.	.	.	.
8ff'\)	.	.	8fff\]L 8ddd-\] 8ff\]	.	.
8r	.	.	(16aan\L	.	.
.	.	.	16bb-\	.	.
*Xped	*	*	*	*	*
8r	.	.	16ccc\	.	.
.	.	.	16bb-\JJ)	.	.
!!LO:PB:g=original
=91	=91	=91	=91	=91	=91
*	*	*	*^	*	*
*ped	*	*	*	*	*	*
8B-/	.	.	(4.aaa-/	N(>16ddd-\LL	.	f
.	.	.	.	16aa-\JJ	.	.
!LO:TX:a:t=P:problem=belka między kernami	!	!	!	!	!	!
16ff-X/LL	1	.	.	8ryy	.	.
16dd-/	2	.	.	.	.	.
16b-/	3	.	.	8ryy	.	.
16a-/JJN)	4	.	.	.	.	.
8ryy	.	.	4ggg-X/	N(>16ddd-\LL	.	.
.	.	.	.	16aa-\JJ	.	.
!LO:TX:a:t=P:problem=belka między kernami	!	!	!	!	!	!
16ff-/LL	.	.	.	8ryy	.	.
16dd-/	.	.	.	.	.	.
16b-/	.	.	8fff-X/	8ryy	.	.
16a-/JJN)	.	.	.	.	.	.
=92	=92	=92	=92	=92	=92	=92
8B-/	.	.	4eee-/	N(>16aa-\LL	.	.
.	.	.	.	16ff-X\JJ	.	.
!LO:TX:a:t=P:problem=belka między kernami	!	!	!	!	!	!
16dd-/LL	.	.	.	8ryy	.	.
16b-/	.	.	.	.	.	.
16a-/	.	.	8ddd-/	8ryy	.	.
16f-X/JJN)	.	.	.	.	.	.
8ryy	.	.	4ccc/	N(>16aa-\LL	.	.
.	.	.	.	16ff-\JJ	.	.
!LO:TX:a:t=P:problem=belka między kernami	!	!	!	!	!	!
16dd-/LL	.	.	.	8ryy	.	.
16b-/	.	.	.	.	.	.
16a-/	.	.	8ddd-/)	8ryy	.	.
16f-/JJN)	.	.	.	.	.	.
*	*	*	*v	*v	*	*
=93	=93	=93	=93	=93	=93
(<16B-/LL	3	.	[4.fff-X\ [4.ddd-\ [4.ff-X\	4 5	p
16d-/	.	.	.	.	.
16f-X/	1	.	.	.	.
16a-/	4	.	.	.	.
16b-/	.	.	.	.	.
16dd-/JJ	.	.	.	.	.
8ff-X\)	.	.	8fff-\]L 8ddd-\] 8ff-\]	.	.
8r	.	.	(16aan\L	1	.
.	.	.	16bb-\	.	.
8r	.	.	16ccc\	.	.
.	.	.	16bb-\JJ)	.	.
=94	=94	=94	=94	=94	=94
(<16B-/LL	.	.	[4.fff-X\ [4.ddd-\ [4.ff-X\	.	.
16d-/	.	.	.	.	.
16f-X/	.	.	.	.	.
16a-/	.	.	.	.	.
16b-/	.	.	.	.	.
16dd-/JJ	.	.	.	.	.
8ff-X\)	.	.	8fff-\]L 8ddd-\] 8ff-\]	.	.
8r	.	.	(16aan\L	.	.
.	.	.	16bb-\	.	.
*Xped	*	*	*	*	*
8r	.	.	16ccc\	.	.
.	.	.	16bb-\JJ)	.	.
!!LO:LB:g=original
=95	=95	=95	=95	=95	=95
*	*	*	*^	*	*
*ped	*	*	*	*	*	*
8d-/	.	.	4eee-/	N(>16bb-\LL	2 4	p
.	.	.	.	16ff\JJ	.	.
!LO:TX:a:t=P:problem=belka między kernami	!	!	!	!	!	!
16ee-/LL	1	.	.	8ryy	.	.
16b-/J	2	.	.	.	.	.
*Xped	*	*	*	*	*	*
8g/JN)	3	.	8eee-/	8ryy	2	.
*ped	*	*	*	*	*	*
8c/	.	.	8fff/L	16eee-\LL	2 3	.
.	.	.	.	16aa-\	.	.
(16ee-/LL	1	.	8aaa-/	16aaa-\	4.	.
16a-/J	2	.	.	16ccc\	.	.
8e-/J)	4	.	8cccc/J	16cccc\	5	.
*Xped	*	*	*	*	*	*
.	.	.	.	16ccc\JJ	.	.
=96	=96	=96	=96	=96	=96	=96
*ped	*	*	*	*	*	*
8d-/	.	.	4bbb-/	N(>16eee-\LL	.	.
.	.	.	.	16bb-\JJ	.	.
!LO:TX:a:t=P:problem=belka między kernami	!	!	!	!	!	!
16ee-/LL	.	.	.	8ryy	.	.
16b-/J	.	.	.	.	.	.
*Xped	*	*	*	*	*	*
8g/JN)	.	.	8aaa-/	8ryy	4	.
*ped	*	*	*	*	*	*
8c/	.	.	8ggg/L	16eee-\LL	2 4	.
.	.	.	.	16aa-\	.	.
(16ee-/LL	.	.	8aaa-/	16aaa-\	5	.
16a-/J	.	.	.	16aa-\	.	.
8e-/J)	.	.	8fff/J	16fff\	5	.
.	.	.	.	16ff\JJ	.	.
*Xped	*	*	*	*	*	*
*clefF4	*	*	*	*	*	*
=97	=97	=97	=97	=97	=97	=97
*ped	*	*	*	*	*	*
8D-\	.	.	4ee-/	N(>16b-\LL	.	.
.	.	.	.	16f\JJ	.	.
!LO:TX:a:t=P:problem=belka między kernami	!	!	!	!	!	!
16e-/LL	1	.	.	8ryy	.	.
16B-/J	2	.	.	.	.	.
*Xped	*	*	*	*	*	*
8G/JN)	3	.	8ee-/	8ryy	.	.
*ped	*	*	*	*	*	*
8C\	.	.	8ff/L	16ee-\LL	.	<
.	.	.	.	16a-\	.	.
(16e-\LL	1	.	8aa-/	16aa-\	.	.
16A-\J	2	.	.	16cc\	.	.
8E-\J)	4	.	8ccc/J	16ccc\	.	.
.	.	.	.	16cc\JJ	.	.
*Xped	*	*	*	*	*	*
=98	=98	=98	=98	=98	=98	=98
*ped	*	*	*	*	*	*
8D-\	.	.	4bb-/	N(>16ee-\LL	.	[
.	.	.	.	16b-\JJ	.	.
!LO:TX:a:t=P:problem=belka między kernami	!	!	!	!	!	!
16e-/LL	.	.	.	8ryy	.	.
16B-/J	.	.	.	.	.	.
*Xped	*	*	*	*	*	*
8G/JN)	.	.	8aa-/	8ryy	.	.
*ped	*	*	*	*	*	*
8C/	.	.	8gg/L	16ee-\LL	.	.
.	.	.	.	16a-\	.	.
(16e-\LL	.	.	8aa-/	16aa-\	.	.
16A-\J	.	.	.	16a-\	.	.
8E-\J)	.	.	8ff/J	16ff\	.	.
*Xped	*	*	*	*	*	*
.	.	.	.	16f\JJ	.	.
!!LO:LB:g=original
=99	=99	=99	=99	=99	=99	=99
16r	.	.	8gg\L 8ee-\ 8g\	8ryy	.	<
*ped	*	*	*	*	*	*
(16C\LL	5	.	.	.	.	.
16A-\	2	.	8aa-\ 8a-\	8ryy	.	.
16c\J	1	.	.	.	.	.
8e-'\J)	2	.	8ff\J 8f\	8ryy	.	.
8ryy	.	.	4gg/	N(>16ee-\LL	.	.
.	.	.	.	16g\JJ	.	.
!LO:TX:a:t=P:problem=belka między kernami	!	!	!	!	!	!
16f/LL	1	.	.	8ryy	.	.
16e-/	2	.	.	.	.	.
16c/	3	.	8aa-/ 8a-/	8ryy	.	.
*Xped	*	*	*	*	*	*
16A-/JJN)	5	.	.	.	.	.
=100	=100	=100	=100	=100	=100	=100
16r	.	.	(8bb-\L 8ee-\ 8b-\	8ryy	.	.
*	*^	*	*	*	*	*
*ped	*	*	*	*	*	*	*
(16GG\LL	5	5	.	.	.	.	.
16E-\	2	3	.	8ccc\ 8cc\	8ryy	.	.
16G\J	1	2	.	.	.	.	.
8d-X'\J)	2	1	.	8aan\J 8an\	8ryy	.	.
*	*v	*v	*	*	*	*	*
8ryy	.	.	4bb-/	N(>16ee-\LL	.	.
.	.	.	.	16b-\JJ	.	.
!LO:TX:a:t=P:problem=belka między kernami	!	!	!	!	!	!
16a-/LL	1	.	.	8ryy	.	.
16g/	2	.	.	.	.	.
16e-/	4	.	8bbn/ 8bn/)	8ryy	.	.
16d-/JJN)	5	.	.	.	.	.
=101	=101	=101	=101	=101	=101	=101
16r	.	.	(8ccc\L 8ee-\ 8cc\	8ryy	.	.
*ped	*	*	*	*	*	*
(16AA-\LL	5	.	.	.	.	.
16E-\	3	.	8ddd-\ 8dd-\	8ryy	.	.
16c\J	1	.	.	.	.	.
8e-'\J)	2	.	8bbn\J 8bn\	8ryy	.	.
8ryy	.	.	4ccc/	N(>16ee-\LL	.	.
.	.	.	.	16cc\JJ	.	.
*clefG2	*	*	*	*	*	*
!LO:TX:a:t=P:problem=belka między kernami	!	!	!	!	!	!
16b-X/LL	1	.	.	8ryy	.	.
16a-/	2	.	.	.	.	.
16e-/	4	.	8ddd-/ 8dd-/)	8ryy	.	.
16c/JJN)	5	.	.	.	.	.
*Xped	*	*	*	*	*	*
*clefF4	*	*	*	*	*	*
=102	=102	=102	=102	=102	=102	=102
16r	.	.	(8dddn\L 8gg\ 8ddn\	8ryy	.	.
*ped	*	*	*	*	*	*
(16BB-\LL	5	.	.	.	.	.
16G\	2	.	8eee-\ 8ee-\	8ryy	.	.
16d-X\J	1	.	.	.	.	.
8e-'\J)	2	.	8ccc\J 8cc\	8ryy	.	.
8ryy	.	.	4ddd-X/	N(>16gg\LL	.	.
.	.	.	.	16dd-X\JJ	.	.
*clefG2	*	*	*	*	*	*
!LO:TX:a:t=P:problem=belka między kernami	!	!	!	!	!	!
16cc/LL	1	.	.	8ryy	.	.
16b-/	2	.	.	.	.	.
16g/	3	.	8dddn/ 8ddn/)	8rffyy	.	.
16e-/JJN)	5	.	.	.	.	.
*Xped	*	*	*	*	*	*
*clefF4	*	*	*	*	*	*
!!LO:LB:g=original
=103	=103	=103	=103	=103	=103	=103
16r	.	.	(8eee-\L 8aa-\ 8ee-\	8ryy	.	.
*ped	*	*	*	*	*	*
(16C\LL	5	.	.	.	.	.
16c\	1	.	8fff\ 8ff\	8ryy	.	.
16e-\J	4	.	.	.	.	.
8a-'\J)	2	.	8dddn\J 8ddn\	8ryy	.	.
8ryy	.	.	4eee-/	N(>16aa-\LL	.	.
.	.	.	.	16ee-\JJ	.	.
!LO:TX:a:t=P:problem=belka między kernami	!	!	!	!	!	!
16F/LL	1	.	.	8ryy	.	.
16E-/	2	.	.	.	.	.
16C/	3	.	8fff/ 8ff/)	8rffyy	.	.
*Xped	*	*	*	*	*	*
16GG/JJN)	5	.	.	.	.	.
*	*	*	*v	*v	*	*
=104	=104	=104	=104	=104	=104
*ped	*	*	*	*	*
8Cn/: 8GG/: 8EE-:/	.	.	N(>16aaa-X\LL	4	f
.	.	.	16ggg-X\	3	.
8ryy	.	.	16eee-\	2	.
.	.	.	16ccc\JJ	1	.
!LO:TX:a:t=P:problem=belka między kernami	!	!	!	!	!
16G/LL	3	.	8ryy	.	.
16A-/JJN)	2	.	.	.	.
8ryy	.	.	N(>16aa-X\LL	.	.
.	.	.	16gg-X\	.	.
8ryy	.	.	16ee-\	.	.
.	.	.	16cc\JJ	.	.
!LO:TX:a:t=P:problem=belka między kernami	!	!	!	!	!
16GG/LL	.	.	8ryy	.	.
*Xped	*	*	*	*	*
16AA-/JJN)	.	.	.	.	.
=105	=105	=105	=105	=105	=105
*ped	*	*	*	*	*
8C/L 8AAn/	1 2	.	16r	.	p
.	.	.	8g-X/L 8G-X/	.	.
8EE-/	5	.	.	.	.
.	.	.	8f/ 8F/	.	.
*Xped	*	*	*	*	*
8C/J 8AA/	.	.	.	.	.
.	.	.	8an/ 8An/	.	.
*ped	*	*	*	*	*
8F/L 8D-/ 8BB-/	1 2 3	.	.	.	.
.	.	.	8cc/ 8c/	.	.
8EE-/	.	.	.	.	.
.	.	.	8b-/ 8B-/	.	.
8F/J 8D-/ 8BB-/	.	.	.	.	.
*Xped	*	*	*	*	*
.	.	.	16dd-/Jk 16d-/	.	.
=106	=106	=106	=106	=106	=106
*ped	*	*	*	*	*
8c\L 8An\	1 2	.	16r	.	.
!	!	!	!	!	!LO:HP:t=cresc.molto.
.	.	.	8gg-X\L 8g-X\	.	<
8E-\	.	.	.	.	.
.	.	.	8ff\ 8f\	.	.
*Xped	*	*	*	*	*
8c\J 8A\	.	.	.	.	.
.	.	.	8aan\ 8an\	.	.
*ped	*	*	*	*	*
8f\L 8d-\ 8B-\	1 2 3	.	.	.	.
.	.	.	8ccc\ 8cc\	.	.
8E-\	.	.	.	.	.
.	.	.	8bb-\ 8b-\	.	.
8f\J 8d-\ 8B-\	.	.	.	.	.
*Xped	*	*	*	*	*
.	.	.	16ddd-\Jk 16dd-\	.	[[
!!LO:PB:g=original
=107	=107	=107	=107	=107	=107
*clefG2	*	*	*	*	*
*ped	*	*	*	*	*
8cc/L 8an/	2	.	16r	.	.
*	*	*	*8va	*	*
.	.	.	8ggg-X\L 8gg-X\	.	.
8e-/	.	.	.	.	.
.	.	.	8fff\ 8ff\	.	.
*Xped	*	*	*	*	*
8cc/J 8a/	.	.	.	.	.
.	.	.	8aaan\ 8aan\	.	.
*ped	*	*	*	*	*
8ff/L 8dd-/ 8b-/	3	.	.	.	.
.	.	.	8cccc\ 8ccc\	.	.
8e-/	.	.	.	.	.
.	.	.	8bbb-\ 8bb-\	.	.
8ff/J 8dd-/ 8b-/	.	.	.	.	.
*Xped	*	*	*	*	*
.	.	.	16dddd-\Jk 16ddd-\	.	.
=108	=108	=108	=108	=108	=108
*ped	*	*	*	*	*
8ff/L 8ddn/ 8b-/ 8a-/	4	.	16r	.	<
.	.	.	8cccc\L 8ccc\	.	.
8e-/	5	.	.	.	.
.	.	.	8bbb-\ 8bb-\	.	.
8ff/J 8dd/ 8b-/ 8a-/	.	.	.	.	.
.	.	.	8ddddn\ 8dddn\	.	.
8ff/L 8dd/ 8b-/ 8a-/	.	.	.	.	.
.	.	.	8cccc\ 8ccc\	.	.
8e-/	.	.	.	.	.
.	.	.	8bbb-\ 8bb-\	.	.
8ff/J 8dd/ 8b-/ 8a-/	.	.	.	.	.
*Xped	*	*	*	*	*
.	.	.	16dddd\Jk 16ddd\	.	[[
=109	=109	=109	=109	=109	=109
*ped	*	*	*	*	*
8aa-/L 8cc'^/	1 2	.	(16eeee-\LL	5	fp
.	.	.	16cccc\	4	.
8e-'/J	5	.	16aaa-\	2	.
.	.	.	16fff\	1	.
*Xped	*	*	*	*	*
8r	.	.	16eee-\	3	.
.	.	.	16ccc\JJ	1	.
8gg#X'/L	1	.	16eeen\LL	2	<
.	.	.	16fff#X\	3	.
8bn'/	2	.	16ggg#X\	4	.
.	.	.	16aaan\	1	.
8en'/J	5	.	16aaa#X\	3	.
.	.	.	16bbbn\JJ)	4	[[
=110	=110	=110	=110	=110	=110
8c'/L	5	.	(16cccc\LL	5	>
.	.	.	16ggg\	3	.
8b-X'/	2	.	16eeen\	2	.
.	.	.	16ccc\	1	.
8een'/J	1	.	16bb-\	3	.
.	.	.	16gg\JJ	1	.
8ff'/L	1	.	16aa-\LL	2	] <
.	.	.	16bb-\	3	.
8a-'/	2	.	16ccc\	1	.
.	.	.	16dddn\	2	.
8f'/J	3	.	16eee\	3	.
.	.	.	16fff\JJ)	1 4	[[
!!LO:LB:g=original
=111	=111	=111	=111	=111	=111
8c'/L	5	.	(16aaa-\LL	3	pp
.	.	.	16bbb-\	4	.
8a-'/	2	.	16aaa-\	3	.
.	.	.	16eeen\	2	.
8een'/J	1	.	16ccc\	1	.
.	.	.	16bb-\JJ	3	.
8ff'/L	1	.	16aa-\LL	2	.
.	.	.	16bb-\	3	.
*	*^	*	*	*	*
8a-'/	2	3	.	16ccc\	1	.
.	.	.	.	16ddd-X\	2	.
8d-X'/J	4	5	.	16eee\	1	.
*	*v	*v	*	*	*	*
.	.	.	16fff\JJ)	1 4	.
=112	=112	=112	=112	=112	=112
8c'/L	.	.	(16aaa-\LL	3 4	.
.	.	.	16bbb-\	.	.
8a-'/	.	.	16aaa-\	.	.
.	.	.	16eeen\	.	.
8een'/J	.	.	16ccc\	.	.
.	.	.	16bb-\JJ	.	.
8ff'/L	.	.	16aa-\LL	2	.
.	.	.	16bb-\	.	.
8a-'/	.	.	16ccc\	1	.
.	.	.	16ddd-\	.	.
8d-'/J	.	.	16eee\	.	.
.	.	.	16fff\JJ)	4	.
*	*	*	*X8va	*	*
=113	=113	=113	=113	=113	=113
*ped	*	*	*	*	*
8gg-X>\L 8a->'>\	3	.	16r	.	<
.	.	.	16ggn/LL	2	.
8c>'>\J	.	.	16r	.	.
.	.	.	(<16aa-/	1	.
8r>	.	.	16ggg/ 16fff-X/	.	.
*Xped	*	*	*	*	*
.	.	.	16aa-/JJ)	.	.
*ped	*	*	*	*	*
8ee-X>\L 8a->'>\	2	.	16r	.	.
.	.	.	16een/LL	2	.
8d->'>\J	.	.	16r	.	.
.	.	.	(<16ff/	1	.
8r>	.	.	16fff-/ 16ddd-/	.	.
*Xped	*	*	*	*	*
.	.	.	16ff/JJ)	.	.
=114	=114	=114	=114	=114	=114
*ped	*	*	*	*	*
8cc#X>\L 8en>'>\	2	.	16r	.	.
.	.	.	16ddn/LL	2	.
8G#X>'>\J	.	.	16r	.	.
.	.	.	(<16een/	1	.
8r>	.	.	16eeen/ 16dddn/	.	.
*Xped	*	*	*	*	*
.	.	.	16ee/JJ)	.	.
*ped	*	*	*	*	*
8bn>\L 8e>'>\	2	.	16r	.	.
.	.	.	16b#X/LL	2	.
8An>'>\J	.	.	16r	.	.
.	.	.	(<16cc#X/	.	.
8r>	.	.	16ccc#X/ 16aan/	1	.
.	.	.	16cc#/JJ)	.	.
*Xped	*	*	*	*	*
*clefF4	*	*	*	*	*
!!LO:LB:g=original
=115	=115	=115	=115	=115	=115
*ped	*	*	*	*	*
8a-X>\L 8cn>'>\	2	.	16r	.	f
.	.	.	16bn/LL	2	.
8E-'/J	.	.	16r	.	.
.	.	.	(16cc/	1	.
*Xped	*	*	*	*	*
8r	.	.	16ccc/ 16aa-/	.	.
.	.	.	16cc/JJ)	.	.
*ped	*	*	*	*	*
8ee->\L 8cc>\	2	.	16r	.	.
.	.	.	16ff/LL	1	.
8e->\J	.	.	16r	.	.
.	.	.	(<16gg-X/	.	.
*Xped	*	*	*	*	*
8r>	.	.	16ggg-X/ 16ccc/	.	.
.	.	.	16gg-/JJ)	.	.
=116	=116	=116	=116	=116	=116
*ped	*	*	*	*	*
8gg>\ 8ddn>\ 8b->\	3	.	(>16fff/LL	5	.
.	.	.	16eee-/	.	.
8r>	.	.	16ddd-/	.	.
.	.	.	16bb-/	.	.
16r>	.	.	16ggn/JJ	1	.
16ddn>\	2	.	16r	.	.
4r	.	.	16ee-/LL	2	<
.	.	.	16ff/	3	.
.	.	.	16gg/	1	.
.	.	.	16bb-/	2	.
8r	.	.	16ccc/	3	.
*Xped	*	*	*	*	*
.	.	.	16ddd-/JJ)	4	[[
=117	=117	=117	=117	=117	=117
*ped	*	*	*	*	*
8g\L 8c'\	2	.	(16eee-\LL	5	fp
.	.	.	16ccc\	4	.
8E-'\J	.	.	16aa-\	2	.
.	.	.	16ff\	1	.
*Xped	*	*	*	*	*
8r	.	.	16ee-\	3	.
.	.	.	16cc\JJ	1	.
8g#X'\L	.	.	16een\LL	2	<
.	.	.	16ff#X\	3	.
8Bn'\	.	.	16gg#X\	4	.
.	.	.	16aan\	1	.
8En'\J	.	.	16aa#X\	3	.
.	.	.	16bbn\JJ)	4	[[
=118	=118	=118	=118	=118	=118
8C'\L	.	.	(16ccc\^LL	5	fp
.	.	.	16gg\	3	.
8B-X'\	.	.	16een\	2	.
.	.	.	16cc\	1	.
8en'\J	.	.	16b-\	3	.
.	.	.	16g\JJ	1	.
8f'\L	.	.	16a-\LL	2	.
.	.	.	16b-\	3	.
8A-'\	.	.	16cc\	1	.
.	.	.	16ddn\	2	.
8F'\J	.	.	16ee\	3	.
.	.	.	16ff\JJ)	1 4	.
!!LO:LB:g=original
=119	=119	=119	=119	=119	=119
*	*	*	*	*^	*
8C'\L	.	.	(16aa-\LL	3	4	pp
.	.	.	16bb-\	4	5	.
8A-'\	.	.	16aa-\	3	4	.
*	*	*	*	*v	*v	*
.	.	.	16een\	2	.
8en'\J	.	.	16cc\	1	.
.	.	.	16b-\JJ	3	.
8f'\L	.	.	16a-\LL	2	.
.	.	.	16b-\	3	.
8A-'\	.	.	16cc\	1	.
.	.	.	16dd-X\	2	.
8D-'\J	.	.	16ee\	3	.
.	.	.	16ff\JJ)	1 4	.
=120	=120	=120	=120	=120	=120
8C'\L	.	.	(16aa-\LL	3 4	.
.	.	.	16bb-\	.	.
8A-'\	.	.	16aa-\	.	.
.	.	.	16een\	.	.
8en'\J	.	.	16cc\	.	.
.	.	.	16b-\JJ	.	.
8f'\L	.	.	16a-\LL	2	.
.	.	.	16b-\	.	.
8A-'\	.	.	16cc\	1	.
.	.	.	16dd-\	.	.
8D-'\J	.	.	16ee\	.	.
.	.	.	16ff\JJ)	4	.
=121	=121	=121	=121	=121	=121
*ped	*	*	*	*	*
8g-X\L 8A-'\	3	.	16r	.	.
.	.	.	16gn'/LL	2	.
8C'\J	.	.	16r	.	.
.	.	.	(16a-/	1	.
*Xped	*	*	*	*	*
8r	.	.	16aa-/ 16gg-X/	4 5	.
.	.	.	16a-/JJ)	1	.
*ped	*	*	*	*	*
8e-X\L 8A-'\	2	.	16r	.	.
.	.	.	16en'/LL	2	.
8D-'\J	.	.	16r	.	.
.	.	.	(16f/	1	.
8r	.	.	16ff/ 16dd-/	.	.
*Xped	*	*	*	*	*
.	.	.	16f/JJ)	.	.
=122	=122	=122	=122	=122	=122
*ped	*	*	*	*	*
8c#X\L 8En'\	.	.	16r	.	.
.	.	.	16dn/LL	2	.
8GG#X'\J	.	.	16r	.	.
.	.	.	(16en/	1	.
*Xped	*	*	*	*	*
8r	.	.	16een/ 16ddn/	.	.
.	.	.	16e/JJ)	.	.
*ped	*	*	*	*	*
8Bn\L 8E'\	.	.	16r	.	.
.	.	.	16B#X'/LL	2	.
8AAn'\J	.	.	16r	.	.
.	.	.	(16c#X/	1	.
8r	.	.	16cc#X/ 16an/	.	.
*Xped	*	*	*	*	*
.	.	.	16c#X/JJ)	.	.
!!LO:LB:g=original
=123	=123	=123	=123	=123	=123
*	*	*	*	*^	*
*ped	*	*	*	*	*	*
8G-X/L 8C/ 8AAn'/	1 2 3	.	16r	.	.	.
.	.	.	(16Bn/LL	1	1	.
8EE-'/J	5	.	16c/	2	2	.
.	.	.	16e-/	3	3	.
8r	.	.	16g-X/	4	4	.
.	.	.	16an/JJ	1	5	.
8g-X\L 8c\ 8An\	3	.	16cc\LL	2	1	.
.	.	.	16ee-\	3	2	.
8E-\J	.	.	16ff\	1	3	.
.	.	.	16aa-X\	4	5	.
*Xped	*	*	*	*	*	*
8r	.	.	16gg-X\	3	4	.
.	.	.	16cc\JJ)	1	1	.
=124	=124	=124	=124	=124	=124	=124
*ped	*	*	*	*	*	*
8gn\: 8d-\: 8B-:\	3	.	(16ee-/LL	4	5	<
.	.	.	16dd-/	3	4	.
8r	.	.	16b-/	2	3	.
.	.	.	16gn/	1	2	.
16D-\LL	4	.	16dn/	2	1	.
16E-\JJ	3	.	16e-/JJ	3	2	.
16F\LL	2	.	16f/LL	1	3	.
16G\	1	.	16g/	.	1	.
16A-\	4	.	16a-/	.	2	.
16B-\	3	.	16b-/	4	3	.
16c\	2	.	16cc/	1	4	.
*Xped	*	*	*	*	*	*
16d-X\JJ	.	.	16dd-X/JJ)	3	5	[[
*	*	*	*	*v	*v	*
=125	=125	=125	=125	=125	=125
*	*	*	*^	*	*
16r	.	.	4ee-/ 4dd-/ 4b-/ 4e-/	N(<16e-\LL	.	f <
!LO:TX:a:t=P:problem=belka między kernami	!	!	!	!	!	!
16f/LL	2	.	.	16ryy	.	.
16r	.	.	.	16d-\JJ	.	.
!LO:TX:a:t=P:problem=belka między kernami	!	!	!	!	!	!
16G/J	1	.	.	16ryy	.	.
8AA-'/JN)	5	.	8ee-/ 8e-/	8ryy	.	.
16r	.	.	8ff\L 8ee-\ 8cc\ 8f\	8ryy	.	.
(16e-\LL	2	.	.	.	.	.
16c\	1	.	8aa-\ 8a-\	8ryy	.	.
16E-\J	3	.	.	.	.	.
8AA-'\J)	5	.	8ccc\J 8cc\	8ryy	.	.
*	*	*	*v	*v	*	*
*clefG2	*	*	*	*	*
=126	=126	=126	=126	=126	=126
16r	.	.	8eee-\L 8aa-\ 8ee-\	.	.
(16cc/LL	2	.	.	.	.
16bn/	1	.	8dddn\ 8ddn\	.	.
16f/J	2	.	.	.	.
8A-'/J)	5	.	8fff\J 8ff\	.	.
*	*	*	*8va	*	*
16r	.	.	8aaa-\L 8ddd\ 8aa-\	.	.
(16gg\LL	2	.	.	.	.
16ff\	1	.	8bbb-\ 8bb-\	.	.
16ddn\J	3	.	.	.	.
8a-'\J)	5	.	8bbbn\J 8bbn\	.	[[
=127	=127	=127	=127	=127	=127
16r	.	.	4cccc\ 4eeen\ 4ccc\	.	.
(16aa-\LL	1	.	.	.	.
16gg\	1	.	.	.	.
16een\J	2	.	.	.	.
8a-'\J)	5	.	8bbb-\ 8bb-\	.	.
16r	.	.	8aaa-\L 8ccc\ 8aa-\	.	.
(16a-/LL	2	.	.	.	.
16cc/	1	.	8ggg\ 8gg\	.	.
16a-/J	3	.	.	.	.
8A-'/J)	5	.	8fff\J 8ff\	.	.
*	*	*	*X8va	*	*
!!LO:PB:g=original
=128	=128	=128	=128	=128	=128
*	*	*	*^	*	*
*ped	*	*	*	*	*	*
8.ryy	.	.	8eeen/ 8ccc/	N(>16een\LL	4 5	.
.	.	.	.	16aa-\	2	.
.	.	.	8ryy	16gg\JJ	1	.
!LO:TX:a:t=P:problem=belka między kernami	!	!	!	!	!	!
16een\LL	1	.	.	16ryy	.	.
16cc\	2	.	8ryy	8ryy	.	.
16a-\JJN)	4	.	.	.	.	.
*	*	*	*8va	*	*	*
8.ryy	.	.	8eeeen/ 8cccc/	N(>16eee\LL	.	.
.	.	.	.	16aaa-\	.	.
.	.	.	8ryy	16ggg\JJ	.	.
!LO:TX:a:t=P:problem=belka między kernami	!	!	!	!	!	!
16eeen/LL	.	.	.	16ryy	.	.
16ccc/	.	.	8ryy	8ryy	.	.
16aa-/JJN)	.	.	.	.	.	.
*Xped	*	*	*X8va	*	*	*
*clefF4	*	*	*	*	*	*
=129	=129	=129	=129	=129	=129	=129
16ryy	.	.	4ee-X/ 4dd-/ 4b-/	N(>16e-X\LL	.	f <
!LO:TX:a:t=P:problem=belka między kernami	!	!	!	!	!	!
16f/LL	2	.	.	16ryy	.	.
16r	.	.	.	16d-\JJ	.	.
!LO:TX:a:t=P:problem=belka między kernami	!	!	!	!	!	!
16G/J	1	.	.	16ryy	.	.
8AA-'/JN)	.	.	8ee-/ 8e-/	8ryy	.	.
16r	.	.	8ff/L 8ee-/ 8cc/ 8f/	8ryy	.	.
(16e-\LL	2	.	.	.	.	.
16c\	1	.	8aa-/ 8a-/	8ryy	.	.
16E-\J	3	.	.	.	.	.
8AA-'\J)	5	.	8ccc/J 8cc/	8ryy	.	.
*	*	*	*v	*v	*	*
*clefG2	*	*	*	*	*
=130	=130	=130	=130	=130	=130
16r	.	.	8eee-\L 8aa-\ 8ee-\	.	.
(16cc/LL	2	.	.	.	.
16bn/	1	.	8dddn\ 8ddn\	.	.
16f/J	2	.	.	.	.
8A-'/J)	5	.	8fff\J 8ff\	.	.
*	*	*	*8va	*	*
16r	.	.	8aaa-\L 8ddd\ 8aa-\	.	.
(16gg\LL	1	.	.	.	.
16ff\	2	.	8bbb-\ 8bb-\	.	.
16ddn\J	3	.	.	.	.
8a-'\J)	5	.	8bbbn\J 8bbn\	.	[[
=131	=131	=131	=131	=131	=131
16r	.	.	4cccc\ 4eeen\ 4ccc\	.	.
(16aa-\LL	1	.	.	.	.
16gg\	1	.	.	.	.
16een\J	2	.	.	.	.
8a-'\J)	5	.	8bbb-\ 8bb-\	.	.
16r	.	.	8aaa-\L 8ccc\ 8aa-\	.	.
(16a-/LL	2	.	.	.	.
16cc/	1	.	8ggg\ 8gg\	.	.
16f/J	3	.	.	.	.
8A-'/J)	5	.	8fff\J 8ff\	.	.
*	*	*	*X8va	*	*
!!LO:LB:g=original
=132	=132	=132	=132	=132	=132
*	*	*	*^	*	*
8.ryy	.	.	8eee-/ 8ddd-/	N(>16ee-\LL	4 5	.
*ped	*	*	*	*	*	*
.	.	.	.	16bb-\	2	.
.	.	.	8ryy	16ff\JJ	1	.
!LO:TX:a:t=P:problem=belka między kernami	!	!	!	!	!	!
16ee-/LL	1	.	.	16ryy	.	.
16dd-/	2	.	8ryy	8ryy	.	.
16a-/JJN)	4	.	.	.	.	.
*	*	*	*8va	*	*	*
8.ryy	.	.	8eeee-/^ 8dddd-/	N(16eee-\LL	.	.
.	.	.	.	16bbb-\	.	.
.	.	.	8ryy	16fff\JJ	.	.
!LO:TX:a:t=P:problem=belka między kernami	!	!	!	!	!	!
16eee-/LL	.	.	.	16ryy	.	.
16ddd-/	.	.	8ryy	8ryy	.	.
16aa-/JJN)	.	.	.	.	.	.
*Xped	*	*	*X8va	*	*	*
=133	=133	=133	=133	=133	=133	=133
8.ryy	.	.	8eee-/ 8ccc/	N(>16ee-\LL	4 5	.
*ped	*	*	*	*	*	*
.	.	.	.	16aa-\	.	.
.	.	.	8ryy	16ff\JJ	.	.
!LO:TX:a:t=P:problem=belka między kernami	!	!	!	!	!	!
16ee-/LL	1	.	.	16ryy	.	.
16dd-/	2	.	8ryy	8ryy	.	.
16a-/JJN)	4	.	.	.	.	.
*	*	*	*8va	*	*	*
8.ryy	.	.	8eeee-/^ 8cccc/	N(>16eee-\LL	.	.
.	.	.	.	16aaa-\	.	.
.	.	.	8ryy	16fff\JJ	.	.
!LO:TX:a:t=P:problem=belka między kernami	!	!	!	!	!	!
16eee-/LL	.	.	.	16ryy	.	.
16ddd-/	.	.	8ryy	8ryy	.	.
16aa-/JJN)	.	.	.	.	.	.
*Xped	*	*	*X8va	*	*	*
=134	=134	=134	=134	=134	=134	=134
8.ryy	.	.	8eeen/ 8ccc/	N(>16een\LL	4 5	.
*ped	*	*	*	*	*	*
.	.	.	.	16aa-\	.	.
.	.	.	8ryy	16gg\JJ	.	.
!LO:TX:a:t=P:problem=belka między kernami	!	!	!	!	!	!
16een/LL	1	.	.	16ryy	.	.
16cc/	2	.	8ryy	8ryy	.	.
16a-/JJN)	4	.	.	.	.	.
*	*	*	*8va	*	*	*
8.ryy	.	.	8eeee/^ 8cccc/	N(16eee\LL	.	.
.	.	.	.	16aaa-\	.	.
.	.	.	8ryy	16ggg\JJ	.	.
!LO:TX:a:t=P:problem=belka między kernami	!	!	!	!	!	!
16eeen/LL	.	.	.	16ryy	.	.
16ccc/	.	.	8ryy	8ryy	.	.
16aa-/JJN)	.	.	.	.	.	.
*Xped	*	*	*X8va	*	*	*
=135	=135	=135	=135	=135	=135	=135
8.ryy	.	.	8eee-X/ 8ccc/	N(>16ee-X\LL	.	.
*ped	*	*	*	*	*	*
.	.	.	.	16aa-\	.	.
.	.	.	8ryy	16gg\JJ	.	.
!LO:TX:a:t=P:problem=belka między kernami	!	!	!	!	!	!
16ee-X/LL	.	.	.	16ryy	.	.
16cc/	.	.	8ryy	8ryy	.	.
16a-/JJN)	.	.	.	.	.	.
*	*	*	*8va	*	*	*
8.ryy	.	.	8eeee-/^ 8cccc/	N(>16eee-\LL	.	.
.	.	.	.	16aaa-\	.	.
.	.	.	8ryy	16ggg\JJ	.	.
!LO:TX:a:t=P:problem=belka między kernami	!	!	!	!	!	!
16eee-/LL	.	.	.	16ryy	.	.
16ccc/	.	.	8ryy	8ryy	.	.
16aa-/JJN)	.	.	.	.	.	.
*Xped	*	*	*X8va	*	*	*
!!LO:LB:g=original
=136	=136	=136	=136	=136	=136	=136
8.ryy	.	.	8eeen/ 8ccc/	N(>16een\LL	.	.
*ped	*	*	*	*	*	*
.	.	.	.	16aa-\	.	.
.	.	.	8ryy	16gg\JJ	.	.
!LO:TX:a:t=P:problem=belka między kernami	!	!	!	!	!	!
16een/LL	.	.	.	16ryy	.	.
16cc/	.	.	8ryy	8ryy	.	.
16a-/JJN)	.	.	.	.	.	.
*	*	*	*8va	*	*	*
8.ryy	.	.	8eeee/^ 8cccc^/	N(>16eee\LL	.	.
.	.	.	.	16aaa-\	.	.
.	.	.	8ryy	16ggg\JJ	.	.
!LO:TX:a:t=P:problem=belka między kernami	!	!	!	!	!	!
16eeen/LL	.	.	.	16ryy	.	.
16ccc/	.	.	8ryy	8ryy	.	.
16aa-/JJN)	.	.	.	.	.	.
*	*	*	*X8va	*	*	*
=137	=137	=137	=137	=137	=137	=137
*	*	*	*8va	*	*	*
8.ryy	.	.	8eeeen/ 8cccc^/	N(>16eeen\LL	.	.
.	.	.	.	16aaa-\	.	.
.	.	.	8ryy	16ggg\JJ	.	.
!LO:TX:a:t=P:problem=belka między kernami	!	!	!	!	!	!
16eeen/LL	.	.	.	16ryy	.	.
16ccc/	.	.	8ryy	8ryy	.	.
16aa-/JJN)	.	.	.	.	.	.
*	*	*	*X8va	*	*	*
8.ryy	.	.	8eee/ 8ccc^/	N(>16ee-\LL	.	.
.	.	.	.	16aa-\	.	.
.	.	.	8ryy	16gg\JJ	.	.
!LO:TX:a:t=P:problem=belka między kernami	!	!	!	!	!	!
16een/LL	.	.	.	16ryy	.	.
16cc/	.	.	8ryy	8ryy	.	.
16a-/JJN)	.	.	.	.	.	.
=138	=138	=138	=138	=138	=138	=138
8.ryy	.	.	8een/ 8cc^/	N(<16en\LL	.	.
.	.	.	.	16a-\	.	.
.	.	.	8ryy	16g\JJ	.	.
*clefF4	*	*	*	*	*	*
!LO:TX:a:t=P:problem=belka między kernami	!	!	!	!	!	!
16en/LL	.	.	.	16ryy	.	.
16c/	.	.	8ryy	8ryy	.	.
16A-/JJN)	.	.	.	.	.	.
8.ryy	.	.	8en/ 8c^/	N(>16En\LL	.	.
.	.	.	.	16A-\	.	.
.	.	.	8ryy	16G\JJ	.	.
!LO:TX:a:t=P:problem=belka między kernami	!	!	!	!	!	!
16En/LL	.	.	.	16ryy	.	.
16C/	.	.	8ryy	8ryy	.	.
16AA-/JJN)	.	.	.	.	.	.
=139	=139	=139	=139	=139	=139	=139
8.ryy	.	.	8en/ 8c^/	N(<16En\LL	.	.
.	.	.	.	16A-\	.	.
.	.	.	8ryy	16G\JJ	.	.
!LO:TX:a:t=P:problem=belka między kernami	!	!	!	!	!	!
16En/LL	.	.	.	16ryy	.	.
16C/	.	.	8ryy	8ryy	.	.
16AA-/JJN)	.	.	.	.	.	.
8.ryy	.	.	8e/ 8c^/	N(<16E\LL	.	.
.	.	.	.	16A-\	.	.
.	.	.	8ryy	16G\JJ	.	.
!LO:TX:a:t=P:problem=belka między kernami	!	!	!	!	!	!
16E/LL	.	.	.	16ryy	.	.
16C/	.	.	8ryy	8ryy	.	.
16AA-/JJN)	.	.	.	.	.	.
!!LO:LB:g=original
=140	=140	=140	=140	=140	=140	=140
8.ryy	.	.	8en/ 8c^/	N(<16En\LL	.	.
.	.	.	.	16A-\	.	.
.	.	.	8ryy	16G\JJ	.	.
!LO:TX:a:t=P:problem=belka między kernami	!	!	!	!	!	!
16En/LL	.	.	.	16ryy	.	.
16C/	.	.	8ryy	8ryy	.	.
16AA-/JJN)	.	.	.	.	.	.
8.ryy	.	.	8e/ 8c^/	N(<16E\LL	.	.
.	.	.	.	16A-\	.	.
.	.	.	8ryy	16G\JJ	.	.
!LO:TX:a:t=P:problem=belka między kernami	!	!	!	!	!	!
16E/LL	.	.	.	16ryy	.	.
16C/	.	.	8ryy	8ryy	.	.
16AA-/JJN)	.	.	.	.	.	.
*Xped	*	*	*	*	*	*
*	*	*	*v	*v	*	*
=141	=141	=141	=141	=141	=141
!	!	!	!LO:TX:b:t=con bravura.	!	!LO:HP:a
*ped	*	*	*	*	*
8AA-\L 8AAA-\	.	.	8r	.	ff <
16ryy	.	.	16B-</LL 16BB-</	.	.
16AA-\L	3	.	16ryy	.	.
16ryy	.	.	16d-</JJ 16D-</	.	.
16C\JJ	1	.	16ryy	.	.
16ryy	.	.	16f/LL 16F</	.	.
16E-\LL	4	.	16ryy	.	.
16ryy	.	.	16b-/ 16B-</	.	.
16A-\	2	.	16ryy	.	.
16ryy	.	.	16dd-/JJ 16d-</	.	.
16c\JJ	1	.	16ryy	.	.
=142	=142	=142	=142	=142	=142
16ryy	.	.	16ff/LL 16f/	.	.
16e->\LL	4	.	16ryy	.	.
16ryy	.	.	16bb-/ 16b-/	.	.
16a->\	.	.	16ryy	.	.
16ryy	.	.	16ddd-/JJ 16dd-/	.	.
16cc>\JJ	.	.	16ryy	.	.
*	*	*	*8va	*	*
16ryy	.	.	16fff/LL 16ff/	.	.
16e->\LL	4	.	16ryy	.	.
16ryy	.	.	16bbb-/ 16bb-/	.	.
16a->\	.	.	16ryy	.	.
16ryy	.	.	16dddd-/JJ 16ddd-/	.	.
*Xped	*	*	*	*	*
16cc>\JJ	.	.	16ryy	.	[[
=143	=143	=143	=143	=143	=143
4r	.	.	8eeee-/ 8eee-/	.	.
*	*	*	*X8va	*	*
.	.	.	8r	.	.
8r	.	.	8r	.	.
*ped	*	*	*	*	*
[4.AA-/ [4.AAA-/	.	.	[4.A-/	2	<
=144	=144	=144	=144	=144	=144
4AA-/] 4AAA-]/	.	.	4A-/]	.	.
*clefG2	*	*	*	*	*
*	*	*	*8va	*	*
4..cc/ 4..a-/ 4..e-/ 4..c/	.	.	4..aaa-\ 4..eee-\ 4..aa-\	.	.
16ccc\ 16aa-\ 16ee-\ 16cc\	.	.	16aaaa-\ 16eeee-\ 16aaa-\	.	[[
=145	=145	=145	=145	=145	=145
*Xped	*	*	*	*	*
2.ccc\ 2.aa-\ 2.ee-\ 2.cc\	.	.	2.aaaa-\ 2.eeee-\ 2.aaa-\	.	.
*	*	*	*X8va	*	*
==	==	==	==	==	==
*-	*-	*-	*-	*-	*-
!!!system-decoration: [(s1,s2)]
!!!RDF**kern: N = linked
!!!RDF**kern: > = above
!!!RDF**kern: < = below
!!!ENC: Berenika Jozajtis
!!!END: 2022-02-10
!!!ENC: Leszek Kubiak
!!!END: 2022-02-15
!!!YEC: Copyright 2022 Narodowy Instytut Fryderyka Chopina (https://polishscores.org)
!!!YEM: License CC-BY-4.0 (https://creativecommons.org/licenses/by/4.0)
